;FLAVOR:Marlin
;TIME:968
;Filament used: 0.083165m
;Layer height: 0.12
;MINX:2.001
;MINY:14.689
;MINZ:0.12
;MAXX:90.986
;MAXY:47.932
;MAXZ:0.12
;Generated with Cura_SteamEngine 4.12.1
M105
M109 S0
M82 ;absolute extrusion mode
; Ender 3 Custom Start G-code
;G92 E0 ; Reset Extruder
;G1 Z2.0 F3000 ; Move Z Axis up little to prevent scratching of Heat Bed
;G1 X0.1 Y20 Z0.3 F5000.0 ; Move to start position
;G1 X0.1 Y200.0 Z0.3 F1500.0 E15 ; Draw the first line
;G1 X0.4 Y200.0 Z0.3 F5000.0 ; Move to side a little
;G1 X0.4 Y20 Z0.3 F1500.0 E30 ; Draw the second line
;G92 E0 ; Reset Extruder
;G1 Z2.0 F3000 ; Move Z Axis up little to prevent scratching of Heat Bed
;G1 X5 Y20 Z0.3 F5000.0 ; Move over to prevent blob squish
G92 E0
G92 E0
;LAYER_COUNT:1
;LAYER:0
M107
;MESH:Ford_logo_flat.jpg
G0 F6000 X70.838 Y44.255 
;TYPE:WALL-INNER
M106
G1 F1200 X71.17 Y44.161 E0.00172
G1 X71.44 Y44.095 E0.00311
G1 X71.9 Y43.968 E0.00549
G1 X72.352 Y43.854 E0.00781
G1 X73.199 Y43.621 E0.0122
G1 X73.755 Y43.463 E0.01508
G1 X74.216 Y43.323 E0.01748
G1 X74.55 Y43.206 E0.01925
G1 X75.732 Y42.834 E0.02543
G1 X75.905 Y42.776 E0.02634
G1 X76.25 Y42.651 E0.02817
G1 X76.575 Y42.547 E0.02988
G1 X76.756 Y42.486 E0.03083
G1 X77.291 Y42.29 E0.03367
G1 X77.596 Y42.167 E0.03531
G1 X77.932 Y42.047 E0.03709
G1 X78.087 Y41.983 E0.03793
G1 X78.608 Y41.776 E0.04073
G1 X78.957 Y41.629 E0.04262
G1 X79.283 Y41.504 E0.04436
G1 X79.623 Y41.356 E0.04621
G1 X79.956 Y41.222 E0.048
G1 X80.298 Y41.068 E0.04987
G1 X80.977 Y40.748 E0.05361
G1 X81.655 Y40.408 E0.0574
G1 X81.993 Y40.228 E0.05931
G1 X82.33 Y40.056 E0.0612
G1 X83.009 Y39.674 E0.06508
G1 X83.686 Y39.271 E0.06901
G1 X84.026 Y39.056 E0.07102
G1 X84.23 Y38.914 E0.07226
G1 X84.634 Y38.643 E0.07469
G1 X84.699 Y38.602 E0.07507
G1 X85.045 Y38.358 E0.07718
G1 X85.722 Y37.84 E0.08144
G1 X86.062 Y37.542 E0.08369
G1 X86.115 Y37.498 E0.08404
G1 X86.403 Y37.274 E0.08586
G1 X86.476 Y37.206 E0.08635
G1 X86.745 Y36.967 E0.08815
G1 X87.085 Y36.629 E0.09054
G1 X87.189 Y36.522 E0.09128
G1 X87.427 Y36.264 E0.09304
G1 X87.798 Y35.829 E0.09589
G1 X87.866 Y35.735 E0.09647
G1 X88.057 Y35.49 E0.09802
G1 X88.313 Y35.146 E0.10016
G1 X88.448 Y34.939 E0.10139
G1 X88.661 Y34.592 E0.10342
G1 X88.795 Y34.354 E0.10478
G1 X88.929 Y34.108 E0.10618
G1 X89.087 Y33.763 E0.10807
G1 X89.225 Y33.417 E0.10993
G1 X89.345 Y33.07 E0.11176
G1 X89.423 Y32.785 E0.11324
G1 X89.443 Y32.722 E0.11357
G1 X89.521 Y32.339 E0.11552
G1 X89.578 Y32.029 E0.11709
G1 X89.611 Y31.677 E0.11885
G1 X89.621 Y31.33 E0.12059
G1 X89.611 Y30.983 E0.12232
G1 X89.581 Y30.628 E0.1241
G1 X89.566 Y30.552 E0.12448
G1 X89.521 Y30.252 E0.126
G1 X89.463 Y29.939 E0.12758
G1 X89.365 Y29.588 E0.1294
G1 X89.306 Y29.421 E0.13029
G1 X89.22 Y29.161 E0.13165
G1 X88.908 Y28.435 E0.13559
G1 X88.585 Y27.881 E0.13879
G1 X88.444 Y27.669 E0.14006
G1 X88.268 Y27.368 E0.1418
G1 X88.102 Y27.177 E0.14307
G1 X87.842 Y26.837 E0.1452
G1 X87.651 Y26.597 E0.14673
G1 X87.235 Y26.151 E0.14977
G1 X87.172 Y26.047 E0.15038
G1 X86.909 Y25.812 E0.15214
G1 X86.839 Y25.7 E0.1528
G1 X86.542 Y25.469 E0.15468
G1 X86.289 Y25.224 E0.15643
G1 X86.057 Y25.038 E0.15792
G1 X85.714 Y24.772 E0.16008
G1 X85.549 Y24.601 E0.16127
G1 X85.324 Y24.475 E0.16255
G1 X85.158 Y24.309 E0.16373
G1 X84.832 Y24.105 E0.16564
G1 X84.558 Y23.892 E0.16738
G1 X84.313 Y23.753 E0.16878
G1 X84.011 Y23.555 E0.17058
G1 X83.79 Y23.415 E0.17189
G1 X83.515 Y23.231 E0.17354
G1 X83.284 Y23.112 E0.17484
G1 X82.995 Y22.935 E0.17653
G1 X82.872 Y22.857 E0.17725
G1 X82.644 Y22.739 E0.17853
G1 X82.32 Y22.547 E0.18041
G1 X82.027 Y22.389 E0.18207
G1 X81.772 Y22.246 E0.18353
G1 X81.542 Y22.15 E0.18478
G1 X81.296 Y22.041 E0.18612
G1 X80.975 Y21.87 E0.18793
G1 X80.659 Y21.722 E0.18967
G1 X80.404 Y21.591 E0.1911
G1 X80.174 Y21.491 E0.19235
G1 X79.936 Y21.381 E0.19366
G1 X79.699 Y21.278 E0.19495
G1 X79.61 Y21.249 E0.19542
G1 X79.286 Y21.117 E0.19716
G1 X78.985 Y20.975 E0.19882
G1 X78.744 Y20.883 E0.20011
G1 X78.503 Y20.784 E0.20141
G1 X78.272 Y20.7 E0.20264
G1 X78.015 Y20.587 E0.20404
G1 X77.771 Y20.5 E0.20533
G1 X77.351 Y20.343 E0.20757
G1 X77.035 Y20.218 E0.20926
G1 X76.919 Y20.18 E0.20987
G1 X76.279 Y19.943 E0.21328
G1 X76.025 Y19.87 E0.2146
G1 X75.772 Y19.786 E0.21593
G1 X75.365 Y19.66 E0.21805
G1 X75.008 Y19.54 E0.21993
G1 X74.752 Y19.461 E0.22127
G1 X74.234 Y19.289 E0.22399
G1 X73.978 Y19.212 E0.22532
G1 X73.124 Y18.978 E0.22974
G1 X72.655 Y18.846 E0.23217
G1 X72.385 Y18.779 E0.23356
G1 X72.116 Y18.705 E0.23495
G1 X71.866 Y18.653 E0.23623
G1 X71.589 Y18.563 E0.23768
G1 X71.179 Y18.45 E0.2398
G1 X71.061 Y18.416 E0.24041
G1 X70.583 Y18.3 E0.24287
G1 X70.243 Y18.214 E0.24462
G1 X69.966 Y18.154 E0.24603
G1 X69.419 Y18.027 E0.24883
G1 X69.136 Y17.967 E0.25028
G1 X68.869 Y17.899 E0.25165
G1 X68.593 Y17.84 E0.25306
G1 X68.318 Y17.776 E0.25447
G1 X68.036 Y17.714 E0.25591
G1 X67.754 Y17.662 E0.25734
G1 X67.456 Y17.599 E0.25886
G1 X67.187 Y17.549 E0.26022
G1 X66.91 Y17.488 E0.26164
G1 X66.618 Y17.439 E0.26312
G1 X66.334 Y17.385 E0.26456
G1 X66.108 Y17.351 E0.2657
G1 X65.429 Y17.228 E0.26914
G1 X65.184 Y17.189 E0.27038
G1 X64.615 Y17.082 E0.27327
G1 X63.736 Y16.948 E0.2777
G1 X63.407 Y16.887 E0.27937
G1 X62.73 Y16.781 E0.28279
G1 X62.397 Y16.739 E0.28447
G1 X62.276 Y16.719 E0.28508
G1 X61.973 Y16.682 E0.2866
G1 X61.682 Y16.636 E0.28807
G1 X61.369 Y16.609 E0.28964
G1 X61.092 Y16.555 E0.29105
G1 X61.047 Y16.55 E0.29127
G1 X60.798 Y16.511 E0.29253
G1 X60.199 Y16.435 E0.29554
G1 X59.902 Y16.393 E0.29704
G1 X59.296 Y16.318 E0.30008
G1 X58.982 Y16.289 E0.30166
G1 X58.699 Y16.272 E0.30307
G1 X58.341 Y16.23 E0.30487
G1 X58 Y16.2 E0.30658
G1 X57.739 Y16.183 E0.30788
G1 X57.33 Y16.145 E0.30993
G1 X56.988 Y16.107 E0.31165
G1 X56.814 Y16.095 E0.31252
G1 X55.891 Y16.008 E0.31714
G1 X55.571 Y15.988 E0.31874
G1 X55.304 Y15.965 E0.32008
G1 X55.266 Y15.96 E0.32027
G1 X54.942 Y15.94 E0.32189
G1 X54.613 Y15.93 E0.32353
G1 X54.292 Y15.902 E0.32514
G1 X53.951 Y15.88 E0.32685
G1 X53.618 Y15.868 E0.32851
G1 X53.029 Y15.831 E0.33145
G1 X52.944 Y15.829 E0.33188
G1 X52.393 Y15.794 E0.33463
G1 X51.592 Y15.747 E0.33863
G1 X51.437 Y15.741 E0.33941
G1 X51.116 Y15.721 E0.34101
G1 X50.579 Y15.709 E0.34369
G1 X50.126 Y15.694 E0.34595
G1 X49.903 Y15.695 E0.34707
G1 X49.564 Y15.685 E0.34876
G1 X49.23 Y15.685 E0.35042
G1 X48.474 Y15.663 E0.3542
G1 X47.882 Y15.664 E0.35715
G1 X47.205 Y15.644 E0.36053
G1 X45.456 Y15.645 E0.36926
G1 X44.838 Y15.664 E0.37234
G1 X44.504 Y15.664 E0.37401
G1 X44.07 Y15.677 E0.37617
G1 X43.736 Y15.677 E0.37784
G1 X43.385 Y15.687 E0.37959
G1 X43.052 Y15.687 E0.38125
G1 X42.478 Y15.706 E0.38412
G1 X42.354 Y15.708 E0.38474
G1 X41.803 Y15.726 E0.38749
G1 X41.289 Y15.756 E0.39006
G1 X41.128 Y15.762 E0.39086
G1 X40.45 Y15.805 E0.39425
G1 X40.227 Y15.811 E0.39536
G1 X39.107 Y15.879 E0.40096
G1 X38.803 Y15.887 E0.40248
G1 X37.719 Y15.956 E0.4079
G1 X37.345 Y15.991 E0.40977
G1 X36.956 Y16.038 E0.41173
G1 X36.587 Y16.073 E0.41357
G1 X36.401 Y16.097 E0.41451
G1 X35.845 Y16.143 E0.41729
G1 X35.06 Y16.218 E0.42123
G1 X34.743 Y16.238 E0.42281
G1 X33.995 Y16.307 E0.42656
G1 X33.362 Y16.386 E0.42974
G1 X32.832 Y16.455 E0.43241
G1 X32.354 Y16.528 E0.43482
G1 X31.285 Y16.658 E0.44019
G1 X30.91 Y16.696 E0.44207
G1 X30.135 Y16.793 E0.44597
G1 X29.651 Y16.868 E0.44841
G1 X29.249 Y16.939 E0.45045
G1 X28.976 Y16.98 E0.45183
G1 X28.632 Y17.043 E0.45357
G1 X28.302 Y17.094 E0.45524
G1 X27.627 Y17.218 E0.45866
G1 X27.291 Y17.269 E0.46036
G1 X26.888 Y17.342 E0.4624
G1 X26.616 Y17.385 E0.46378
G1 X25.938 Y17.513 E0.46722
G1 X25.257 Y17.661 E0.47069
G1 X24.918 Y17.749 E0.47244
G1 X24.591 Y17.82 E0.47411
G1 X24.343 Y17.867 E0.47537
G1 X23.906 Y17.97 E0.47761
G1 X23.578 Y18.031 E0.47928
G1 X22.901 Y18.176 E0.48273
G1 X22.168 Y18.355 E0.48649
G1 X21.715 Y18.469 E0.48882
G1 X21.208 Y18.608 E0.49145
G1 X20.768 Y18.742 E0.49374
G1 X20.2 Y18.903 E0.49669
G1 X19.185 Y19.159 E0.50191
G1 X18.841 Y19.266 E0.50371
G1 X18.167 Y19.494 E0.50726
G1 X17.829 Y19.606 E0.50903
G1 X17.157 Y19.812 E0.51254
G1 X16.422 Y20.057 E0.51641
G1 X16.143 Y20.147 E0.51787
G1 X15.798 Y20.275 E0.5197
G1 X14.453 Y20.827 E0.52696
G1 X13.951 Y21.017 E0.52963
G1 X13.779 Y21.079 E0.53055
G1 X13.434 Y21.215 E0.5324
G1 X12.082 Y21.833 E0.53981
G1 X11.66 Y22.042 E0.54216
G1 X10.391 Y22.699 E0.54929
G1 X9.715 Y23.081 E0.55317
G1 X9.368 Y23.285 E0.55517
G1 X9.189 Y23.408 E0.55626
G1 X8.655 Y23.749 E0.55942
G1 X8.352 Y23.955 E0.56125
G1 X8.014 Y24.192 E0.56331
G1 X7.589 Y24.514 E0.56597
G1 X7.337 Y24.697 E0.56752
G1 X6.991 Y24.981 E0.56975
G1 X6.655 Y25.271 E0.57197
G1 X6.313 Y25.581 E0.57427
G1 X5.739 Y26.14 E0.57827
G1 X5.63 Y26.255 E0.57906
G1 X5.427 Y26.484 E0.58059
G1 X5.133 Y26.826 E0.58284
G1 X4.952 Y27.062 E0.58432
G1 X4.865 Y27.171 E0.58501
G1 X4.607 Y27.532 E0.58723
G1 X4.393 Y27.861 E0.58919
G1 X4.185 Y28.21 E0.59121
G1 X4.014 Y28.552 E0.59312
G1 X3.855 Y28.899 E0.59503
G1 X3.715 Y29.245 E0.59689
G1 X3.595 Y29.592 E0.59872
G1 X3.503 Y29.939 E0.60051
G1 X3.427 Y30.29 E0.6023
G1 X3.38 Y30.641 E0.60407
G1 X3.354 Y30.984 E0.60579
G1 X3.344 Y31.332 E0.60752
G1 X3.354 Y31.679 E0.60925
G1 X3.385 Y32.029 E0.61101
G1 X3.438 Y32.373 E0.61274
G1 X3.521 Y32.776 E0.6148
G1 X3.616 Y33.072 E0.61635
G1 X3.779 Y33.558 E0.6189
G1 X3.884 Y33.803 E0.62023
G1 X3.924 Y33.865 E0.6206
G1 X4.103 Y34.271 E0.62282
G1 X4.228 Y34.496 E0.6241
G1 X4.271 Y34.542 E0.62441
G1 X4.411 Y34.789 E0.62583
G1 X4.474 Y34.932 E0.62661
G1 X4.63 Y35.114 E0.62781
G1 X4.76 Y35.334 E0.62908
G1 X4.914 Y35.535 E0.63034
G1 X5.16 Y35.825 E0.63224
G1 X5.212 Y35.927 E0.63281
G1 X5.453 Y36.162 E0.63449
G1 X5.524 Y36.29 E0.63522
G1 X5.769 Y36.504 E0.63685
G1 X5.858 Y36.644 E0.63767
G1 X6.117 Y36.849 E0.63932
G1 X6.201 Y36.98 E0.6401
G1 X6.483 Y37.193 E0.64186
G1 X6.56 Y37.306 E0.64254
G1 X6.877 Y37.535 E0.64449
G1 X7.128 Y37.764 E0.64619
G1 X7.326 Y37.908 E0.64741
G1 X7.695 Y38.183 E0.64971
G1 X7.891 Y38.364 E0.65104
G1 X8.104 Y38.486 E0.65226
G1 X8.365 Y38.667 E0.65385
G1 X8.498 Y38.768 E0.65468
G1 X8.721 Y38.902 E0.65598
G1 X8.901 Y39.053 E0.65715
G1 X9.25 Y39.246 E0.65914
G1 X9.537 Y39.434 E0.66085
G1 X9.82 Y39.591 E0.66247
G1 X10.188 Y39.807 E0.66459
G1 X10.429 Y39.932 E0.66595
G1 X10.735 Y40.104 E0.6677
G1 X11.056 Y40.265 E0.66949
G1 X11.279 Y40.404 E0.6708
G1 X11.511 Y40.517 E0.67209
G1 X11.757 Y40.62 E0.67342
G1 X12.092 Y40.792 E0.6753
G1 X12.202 Y40.844 E0.67591
G1 X12.454 Y40.958 E0.67729
G1 X12.765 Y41.103 E0.679
G1 X12.892 Y41.165 E0.6797
G1 X13.128 Y41.274 E0.681
G1 X13.371 Y41.381 E0.68233
G1 X14.114 Y41.655 E0.68628
G1 X15.131 Y42.07 E0.69176
G1 X15.544 Y42.241 E0.69399
G1 X15.775 Y42.324 E0.69521
G1 X16.039 Y42.432 E0.69663
G1 X16.546 Y42.601 E0.6993
G1 X16.824 Y42.689 E0.70076
G1 X17.303 Y42.854 E0.70328
G1 X17.498 Y42.911 E0.7043
G1 X17.757 Y43 E0.70566
G1 X18.074 Y43.103 E0.70733
G1 X18.169 Y43.128 E0.70782
G1 X19.091 Y43.436 E0.71267
G1 X19.188 Y43.458 E0.71316
G1 X19.524 Y43.55 E0.7149
G1 X20.184 Y43.714 E0.71829
G1 X20.872 Y43.899 E0.72185
G1 X21.189 Y43.995 E0.7235
G1 X21.492 Y44.083 E0.72507
G1 X21.753 Y44.152 E0.72642
G1 X21.883 Y44.193 E0.7271
G1 X22.291 Y44.296 E0.7292
G1 X22.573 Y44.356 E0.73064
G1 X22.839 Y44.425 E0.73201
G1 X23.109 Y44.491 E0.7334
G1 X23.392 Y44.546 E0.73483
G1 X23.95 Y44.669 E0.73768
G1 X24.255 Y44.725 E0.73923
G1 X24.513 Y44.782 E0.74055
G1 X24.782 Y44.837 E0.74192
G1 X25.054 Y44.906 E0.74332
G1 X25.336 Y44.965 E0.74476
G1 X25.645 Y45.041 E0.74634
G1 X25.938 Y45.104 E0.74784
G1 X26.28 Y45.166 E0.74957
G1 X26.753 Y45.241 E0.75196
G1 X27.042 Y45.294 E0.75343
G1 X27.286 Y45.331 E0.75466
G1 X27.902 Y45.446 E0.75779
G1 X28.191 Y45.491 E0.75925
G1 X28.636 Y45.573 E0.7615
G1 X28.973 Y45.629 E0.76321
G1 X29.339 Y45.696 E0.76506
G1 X29.99 Y45.794 E0.76835
G1 X30.33 Y45.839 E0.77006
G1 X30.518 Y45.869 E0.77101
G1 X31.124 Y45.944 E0.77406
G1 X31.413 Y45.986 E0.77551
G1 X31.71 Y46.025 E0.77701
G1 X32.018 Y46.053 E0.77855
G1 X32.348 Y46.103 E0.78022
G1 X32.603 Y46.144 E0.7815
G1 X33.209 Y46.218 E0.78455
G1 X33.36 Y46.241 E0.78531
G1 X33.807 Y46.298 E0.78756
G1 X34.427 Y46.353 E0.79067
G1 X37.753 Y46.658 E0.80733
G1 X38.789 Y46.722 E0.81251
G1 X39.102 Y46.73 E0.81407
G1 X40.071 Y46.792 E0.81891
G1 X40.113 Y46.792 E0.81912
G1 X40.704 Y46.829 E0.82208
G1 X41.125 Y46.843 E0.82418
G1 X41.803 Y46.885 E0.82757
G1 X42.481 Y46.905 E0.83095
G1 X42.816 Y46.905 E0.83262
G1 X43.492 Y46.926 E0.836
G1 X44.166 Y46.936 E0.83936
G1 X44.505 Y46.946 E0.84105
G1 X44.838 Y46.946 E0.84271
G1 X45.178 Y46.956 E0.84441
G1 X45.511 Y46.956 E0.84607
G1 X46.291 Y46.978 E0.84996
G1 X46.865 Y46.974 E0.85283
G1 X46.971 Y46.975 E0.85336
G1 X47.546 Y46.956 E0.85623
G1 X47.877 Y46.953 E0.85788
G1 X48.003 Y46.954 E0.85851
G1 X48.355 Y46.943 E0.86026
G1 X48.688 Y46.943 E0.86193
G1 X49.04 Y46.932 E0.86368
G1 X49.373 Y46.932 E0.86534
G1 X50.072 Y46.911 E0.86883
G1 X50.405 Y46.911 E0.87049
G1 X51.254 Y46.885 E0.87473
G1 X52.606 Y46.802 E0.88149
G1 X52.885 Y46.795 E0.88288
G1 X53.954 Y46.731 E0.88823
G1 X54.31 Y46.719 E0.89
G1 X55.034 Y46.673 E0.89362
G1 X55.402 Y46.64 E0.89547
G1 X55.642 Y46.623 E0.89667
G1 X56.889 Y46.507 E0.90291
G1 X56.995 Y46.493 E0.90345
G1 X57.667 Y46.432 E0.90681
G1 X58.01 Y46.392 E0.90854
G1 X58.37 Y46.368 E0.91034
G1 X59.352 Y46.274 E0.91526
G1 X59.692 Y46.226 E0.91697
G1 X60.031 Y46.184 E0.91868
G1 X60.371 Y46.135 E0.92039
G1 X62.21 Y45.904 E0.92964
G1 X62.61 Y45.843 E0.93165
G1 X62.73 Y45.828 E0.93226
G1 X63.072 Y45.775 E0.93398
G1 X63.421 Y45.711 E0.93575
G1 X63.741 Y45.671 E0.93736
G1 X64.082 Y45.616 E0.93909
G1 X64.416 Y45.553 E0.94078
G1 X64.617 Y45.522 E0.9418
G1 X65.439 Y45.373 E0.94597
G1 X66.103 Y45.269 E0.94932
G1 X66.442 Y45.213 E0.95103
G1 X66.782 Y45.148 E0.95276
G1 X67.117 Y45.075 E0.95447
G1 X67.493 Y45.004 E0.95638
G1 X67.924 Y44.911 E0.95858
G1 X68.35 Y44.825 E0.96075
G1 X68.807 Y44.713 E0.96309
G1 X70.157 Y44.424 E0.96998
G1 X70.838 Y44.255 E0.97348
G0 F6000 X70.85 Y44.304
;TYPE:WALL-OUTER
G1 F1200 X71.183 Y44.209 E0.97521
G1 X71.452 Y44.143 E0.97659
G1 X71.913 Y44.016 E0.97898
G1 X72.365 Y43.902 E0.9813
G1 X73.212 Y43.669 E0.98569
G1 X73.77 Y43.511 E0.98858
G1 X74.231 Y43.37 E0.99098
G1 X74.566 Y43.253 E0.99275
G1 X75.747 Y42.882 E0.99893
G1 X75.92 Y42.824 E0.99984
G1 X76.266 Y42.698 E1.00168
G1 X76.59 Y42.595 E1.00337
G1 X76.771 Y42.534 E1.00433
G1 X77.308 Y42.337 E1.00718
G1 X77.614 Y42.214 E1.00883
G1 X77.949 Y42.094 E1.0106
G1 X78.106 Y42.029 E1.01145
G1 X78.627 Y41.822 E1.01425
G1 X78.975 Y41.675 E1.01613
G1 X79.301 Y41.551 E1.01787
G1 X79.642 Y41.402 E1.01973
G1 X79.977 Y41.268 E1.02153
G1 X80.319 Y41.114 E1.0234
G1 X80.998 Y40.794 E1.02714
G1 X81.677 Y40.453 E1.03093
G1 X82.016 Y40.272 E1.03285
G1 X82.353 Y40.101 E1.03474
G1 X83.034 Y39.718 E1.03864
G1 X83.712 Y39.314 E1.04257
G1 X84.055 Y39.097 E1.0446
G1 X84.258 Y38.955 E1.04583
G1 X84.661 Y38.685 E1.04825
G1 X84.728 Y38.643 E1.04865
G1 X85.074 Y38.399 E1.05076
G1 X85.755 Y37.878 E1.05504
G1 X86.094 Y37.58 E1.05729
G1 X86.146 Y37.537 E1.05763
G1 X86.434 Y37.314 E1.05944
G1 X86.51 Y37.243 E1.05996
G1 X86.778 Y37.004 E1.06175
G1 X87.12 Y36.664 E1.06416
G1 X87.226 Y36.556 E1.06492
G1 X87.464 Y36.298 E1.06667
G1 X87.541 Y36.21 E1.06725
G1 X87.836 Y35.862 E1.06953
G1 X87.906 Y35.765 E1.07012
G1 X88.096 Y35.521 E1.07167
G1 X88.353 Y35.176 E1.07381
G1 X88.49 Y34.966 E1.07506
G1 X88.704 Y34.618 E1.0771
G1 X88.839 Y34.379 E1.07847
G1 X88.972 Y34.133 E1.07987
G1 X89.132 Y33.784 E1.08178
G1 X89.271 Y33.436 E1.08365
G1 X89.392 Y33.086 E1.0855
G1 X89.471 Y32.799 E1.08698
G1 X89.491 Y32.738 E1.0873
G1 X89.57 Y32.349 E1.08928
G1 X89.628 Y32.036 E1.09087
G1 X89.661 Y31.682 E1.09265
G1 X89.671 Y31.331 E1.0944
G1 X89.661 Y30.982 E1.09614
G1 X89.631 Y30.624 E1.09793
G1 X89.615 Y30.543 E1.09834
G1 X89.57 Y30.245 E1.09985
G1 X89.512 Y29.93 E1.10145
G1 X89.413 Y29.575 E1.10328
G1 X89.353 Y29.404 E1.10419
G1 X89.267 Y29.144 E1.10555
G1 X89.155 Y28.882 E1.10698
G1 X88.954 Y28.415 E1.10951
G1 X88.82 Y28.185 E1.11084
G1 X88.627 Y27.853 E1.11276
G1 X88.486 Y27.642 E1.11402
G1 X88.306 Y27.335 E1.1158
G1 X88.141 Y27.145 E1.11705
G1 X87.882 Y26.807 E1.11918
G1 X87.691 Y26.567 E1.12071
G1 X87.452 Y26.313 E1.12245
