;FLAVOR:Marlin
;TIME:386
;Filament used: 0.0239895m
;Layer height: 0.12
;MINX:18.36
;MINY:62.607
;MINZ:0.12
;MAXX:107.989
;MAXY:82.295
;MAXZ:0.12
;Generated with Cura_SteamEngine 4.12.1
G28
M105
M109 S0
M82 ;absolute extrusion mode
; Ender 3 Custom Start G-code
;G92 E0 ; Reset Extruder
;G1 Z2.0 F3000 ; Move Z Axis up little to prevent scratching of Heat Bed
;G1 X0.1 Y20 Z0.3 F5000.0 ; Move to start position
;G1 X0.1 Y200.0 Z0.3 F1500.0 E15 ; Draw the first line
;G1 X0.4 Y200.0 Z0.3 F5000.0 ; Move to side a little
;G1 X0.4 Y20 Z0.3 F1500.0 E30 ; Draw the second line
;G92 E0 ; Reset Extruder
;G1 Z2.0 F3000 ; Move Z Axis up little to prevent scratching of Heat Bed
;G1 X5 Y20 Z0.3 F5000.0 ; Move over to prevent blob squish
G92 E0
G92 E0
;LAYER_COUNT:1
;LAYER:0
M107
;MESH:SUU_Academic_Logo_2016 (1).png
G0 F6000 X92.513 Y81.596 Z100
;TYPE:WALL-INNER
M106
G1 F1200 X92.89 Y81.588 E0.00188
G1 X94.121 Y81.588 E0.00802
G1 X94.194 Y81.703 E0.0087
G1 X94.211 Y81.84 E0.00939
G1 X94.113 Y81.851 E0.00988
G1 X91.893 Y81.85 E0.02096
G1 X91.893 Y77.712 E0.0416
G1 X94.239 Y77.712 E0.05331
G1 X94.223 Y78.1 E0.05524
G1 X94.123 Y78.092 E0.05575
G1 X92.639 Y78.09 E0.06315
G1 X92.465 Y78.307 E0.06454
G1 X92.464 Y79.431 E0.07014
G1 X92.487 Y79.665 E0.07132
G1 X93.894 Y79.666 E0.07834
G1 X93.894 Y80.074 E0.08037
G1 X92.652 Y80.075 E0.08657
G1 X92.465 Y80.249 E0.08784
G1 X92.464 Y81.199 E0.09258
G1 X92.513 Y81.596 E0.09458
G0 F6000 X92.469 Y81.647
;TYPE:WALL-OUTER
G1 F1200 X92.891 Y81.638 E0.09668
G1 X94.094 Y81.638 E0.10269
G1 X94.146 Y81.72 E0.10317
G1 X94.155 Y81.796 E0.10355
G1 X94.11 Y81.801 E0.10378
G1 X91.943 Y81.8 E0.11459
G1 X91.943 Y77.762 E0.13474
G1 X94.187 Y77.762 E0.14593
G1 X94.175 Y78.046 E0.14735
G1 X94.127 Y78.042 E0.14759
G1 X92.615 Y78.04 E0.15513
G1 X92.415 Y78.29 E0.15673
G1 X92.414 Y79.436 E0.16245
G1 X92.442 Y79.715 E0.16385
G1 X93.844 Y79.716 E0.17084
G1 X93.844 Y80.024 E0.17238
G1 X92.632 Y80.025 E0.17842
G1 X92.415 Y80.227 E0.1799
G1 X92.414 Y81.205 E0.18478
G1 X92.469 Y81.647 E0.187
G0 F6000 X92.434 Y81.688
;TYPE:SKIN
G1 F1200 X92.892 Y81.678 E0.18929
G1 X94.072 Y81.678 E0.19518
G1 X94.103 Y81.761 E0.19562
G1 X91.983 Y81.76 E0.2062
G1 X91.983 Y77.802 E0.22594
G1 X94.145 Y77.802 E0.23673
G1 X94.127 Y78.002 E0.23773
G1 X92.596 Y78 E0.24537
G1 X92.375 Y78.275 E0.24713
G1 X92.374 Y79.435 E0.25292
G1 X92.406 Y79.755 E0.25452
G1 X93.804 Y79.756 E0.2615
G1 X93.804 Y79.984 E0.26263
G1 X92.616 Y79.985 E0.26856
G1 X92.375 Y80.21 E0.2702
G1 X92.374 Y81.204 E0.27516
G1 X92.434 Y81.688 E0.2776
G0 F6000 X92.043 Y81.719
G1 F1200 X92.022 Y81.698 E0.27774
G0 F6000 X92.022 Y81.556
G1 F1200 X92.184 Y81.719 E0.27889
G0 F6000 X92.326 Y81.719
G1 F1200 X92.022 Y81.415 E0.28104
G0 F6000 X92.022 Y81.274
G1 F1200 X92.386 Y81.638 E0.2836
G0 F6000 X92.366 Y81.477
G1 F1200 X92.022 Y81.132 E0.28604
G0 F6000 X92.022 Y80.991
G1 F1200 X92.346 Y81.315 E0.28832
G0 F6000 X92.334 Y81.161
G1 F1200 X92.022 Y80.849 E0.29052
G0 F6000 X92.022 Y80.708
G1 F1200 X92.334 Y81.02 E0.29272
G0 F6000 X92.334 Y80.878
G1 F1200 X92.022 Y80.567 E0.29492
G0 F6000 X92.022 Y80.425
G1 F1200 X92.334 Y80.737 E0.29712
G0 F6000 X92.334 Y80.596
G1 F1200 X92.022 Y80.284 E0.29932
G0 F6000 X92.022 Y80.142
G1 F1200 X92.334 Y80.455 E0.30153
G0 F6000 X92.334 Y80.313
G1 F1200 X92.022 Y80.001 E0.30373
G0 F6000 X92.022 Y79.859
G1 F1200 X92.344 Y80.182 E0.30601
G0 F6000 X92.417 Y80.113
G1 F1200 X92.022 Y79.718 E0.30879
G0 F6000 X92.022 Y79.577
G1 F1200 X92.49 Y80.045 E0.31209
G0 F6000 X92.563 Y79.977
G1 F1200 X92.382 Y79.796 E0.31337
G0 F6000 X92.367 Y79.781
G1 F1200 X92.022 Y79.435 E0.31581
G0 F6000 X92.022 Y79.294
G1 F1200 X92.352 Y79.624 E0.31814
G0 F6000 X92.336 Y79.467
G1 F1200 X92.022 Y79.152 E0.32036
G0 F6000 X92.022 Y79.011
G1 F1200 X92.334 Y79.323 E0.32256
G0 F6000 X92.334 Y79.181
G1 F1200 X92.022 Y78.869 E0.32476
G0 F6000 X92.022 Y78.728
G1 F1200 X92.334 Y79.04 E0.32696
G0 F6000 X92.334 Y78.898
G1 F1200 X92.022 Y78.587 E0.32916
G0 F6000 X92.022 Y78.445
G1 F1200 X92.334 Y78.757 E0.33136
G0 F6000 X92.334 Y78.616
G1 F1200 X92.022 Y78.304 E0.33356
G0 F6000 X92.022 Y78.162
G1 F1200 X92.334 Y78.474 E0.33576
G0 F6000 X92.334 Y78.333
G1 F1200 X92.022 Y78.021 E0.33796
G0 F6000 X92.022 Y77.88
G1 F1200 X92.365 Y78.222 E0.34038
G0 F6000 X92.428 Y78.144
G1 F1200 X92.126 Y77.842 E0.34251
G0 F6000 X92.267 Y77.842
G1 F1200 X92.49 Y78.066 E0.34409
G0 F6000 X92.553 Y77.987
G1 F1200 X92.408 Y77.842 E0.34511
G0 F6000 X92.55 Y77.842
G1 F1200 X92.667 Y77.959 E0.34594
G0 F6000 X92.691 Y77.842
G1 F1200 X92.809 Y77.959 E0.34677
G0 F6000 X92.833 Y77.842
G1 F1200 X92.95 Y77.959 E0.34759
G0 F6000 X92.974 Y77.842
G1 F1200 X93.092 Y77.96 E0.34842
G0 F6000 X93.116 Y77.842
G1 F1200 X93.234 Y77.96 E0.34926
G0 F6000 X93.257 Y77.842
G1 F1200 X93.375 Y77.96 E0.35009
G0 F6000 X93.398 Y77.842
G1 F1200 X93.516 Y77.96 E0.35092
G0 F6000 X93.54 Y77.842
G1 F1200 X93.659 Y77.961 E0.35176
G0 F6000 X93.681 Y77.842
G1 F1200 X93.8 Y77.961 E0.3526
G0 F6000 X93.823 Y77.842
G1 F1200 X93.941 Y77.961 E0.35344
G0 F6000 X93.964 Y77.842
G1 F1200 X94.083 Y77.961 E0.35428
G0 F6000 X94.083 Y77.942
G0 X92.598 Y78.004
G0 X92.378 Y78.277
G0 X92.416 Y79.744
G0 X93.655 Y79.815
G0 X93.655 Y79.796
G1 F1200 X93.763 Y79.904 E0.35504
G0 F6000 X93.661 Y79.944
G1 F1200 X93.514 Y79.796 E0.35608
G0 F6000 X93.372 Y79.796
G1 F1200 X93.52 Y79.944 E0.35712
G0 F6000 X93.379 Y79.944
G1 F1200 X93.231 Y79.796 E0.35817
G0 F6000 X93.089 Y79.796
G1 F1200 X93.237 Y79.944 E0.35921
G0 F6000 X93.096 Y79.944
G1 F1200 X92.948 Y79.796 E0.36026
G0 F6000 X92.807 Y79.796
G1 F1200 X92.954 Y79.944 E0.3613
G0 F6000 X92.813 Y79.944
G1 F1200 X92.665 Y79.796 E0.36234
G0 F6000 X92.524 Y79.796
G1 F1200 X92.672 Y79.944 E0.36339
G0 F6000 X92.673 Y79.924
G0 X91.963 Y79.907
G0 X91.703 Y79.907
G0 X90.02 Y79.907
G0 X87.341 Y79.907
G0 X87.452 Y79.778
;TYPE:WALL-INNER
G1 F1200 X87.782 Y79.752 E0.36504
G1 X88.883 Y79.751 E0.37053
G1 X89.129 Y79.583 E0.37202
G1 X89.189 Y79.461 E0.37269
G1 X89.19 Y77.714 E0.38141
G1 X89.83 Y77.712 E0.3846
G1 X89.83 Y81.85 E0.40525
G1 X89.19 Y81.85 E0.40844
G1 X89.189 Y80.442 E0.41546
G1 X89.076 Y80.199 E0.4168
G1 X88.941 Y80.105 E0.41762
G1 X87.785 Y80.105 E0.42339
G1 X87.539 Y80.098 E0.42462
G1 X87.384 Y80.254 E0.42571
G1 X87.364 Y80.477 E0.42683
G1 X87.364 Y81.85 E0.43368
G1 X86.79 Y81.85 E0.43655
G1 X86.79 Y77.718 E0.45716
G1 X86.911 Y77.711 E0.45776
G1 X87.364 Y77.712 E0.46002
G1 X87.365 Y79.569 E0.46929
G1 X87.444 Y79.663 E0.4699
G1 X87.452 Y79.778 E0.47048
G0 F6000 X87.406 Y79.832
;TYPE:WALL-OUTER
G1 F1200 X87.784 Y79.802 E0.47237
G1 X88.898 Y79.801 E0.47793
G1 X89.168 Y79.616 E0.47956
G1 X89.239 Y79.473 E0.48036
G1 X89.24 Y77.764 E0.48888
G1 X89.78 Y77.762 E0.49158
G1 X89.78 Y81.8 E0.51172
G1 X89.24 Y81.8 E0.51442
G1 X89.239 Y80.432 E0.52124
G1 X89.115 Y80.165 E0.52271
G1 X88.957 Y80.055 E0.52367
G1 X87.786 Y80.055 E0.52951
G1 X87.518 Y80.047 E0.53085
G1 X87.336 Y80.232 E0.53214
G1 X87.314 Y80.472 E0.53335
G1 X87.314 Y81.8 E0.53997
G1 X86.84 Y81.8 E0.54234
G1 X86.84 Y77.765 E0.56247
G1 X86.912 Y77.761 E0.56283
G1 X87.314 Y77.762 E0.56483
G1 X87.315 Y79.587 E0.57394
G1 X87.395 Y79.683 E0.57456
G1 X87.406 Y79.832 E0.57531
G0 F6000 X87.369 Y79.875
;TYPE:SKIN
G1 F1200 X87.789 Y79.842 E0.57741
G1 X88.91 Y79.841 E0.583
G1 X89.199 Y79.644 E0.58475
G1 X89.279 Y79.482 E0.58565
G1 X89.28 Y77.804 E0.59402
G1 X89.74 Y77.802 E0.59631
G1 X89.74 Y81.76 E0.61606
G1 X89.28 Y81.76 E0.61836
G1 X89.279 Y80.422 E0.62503
G1 X89.148 Y80.139 E0.62659
G1 X88.97 Y80.015 E0.62767
G1 X87.787 Y80.015 E0.63357
G1 X87.503 Y80.006 E0.63499
G1 X87.297 Y80.214 E0.63645
G1 X87.274 Y80.473 E0.63775
G1 X87.274 Y81.76 E0.64417
G1 X86.88 Y81.76 E0.64613
G1 X86.88 Y77.803 E0.66588
G1 X86.916 Y77.801 E0.66605
G1 X87.274 Y77.802 E0.66784
G1 X87.275 Y79.602 E0.67682
G1 X87.356 Y79.698 E0.67745
G1 X87.369 Y79.875 E0.67833
G0 F6000 X86.952 Y81.719
G1 F1200 X86.918 Y81.686 E0.67857
G0 F6000 X86.918 Y81.544
G1 F1200 X87.093 Y81.719 E0.6798
G0 F6000 X87.232 Y81.717
G1 F1200 X86.918 Y81.403 E0.68202
G0 F6000 X86.918 Y81.262
G1 F1200 X87.232 Y81.576 E0.68424
G0 F6000 X87.232 Y81.434
G1 F1200 X86.918 Y81.12 E0.68645
G0 F6000 X86.918 Y80.979
G1 F1200 X87.232 Y81.293 E0.68867
G0 F6000 X87.232 Y81.151
G1 F1200 X86.918 Y80.837 E0.69088
G0 F6000 X86.918 Y80.696
G1 F1200 X87.233 Y81.011 E0.6931
G0 F6000 X87.233 Y80.869
G1 F1200 X86.918 Y80.555 E0.69532
G0 F6000 X86.918 Y80.413
G1 F1200 X87.233 Y80.728 E0.69755
G0 F6000 X87.233 Y80.586
G1 F1200 X86.918 Y80.272 E0.69976
G0 F6000 X86.918 Y80.13
G1 F1200 X87.236 Y80.448 E0.70201
G0 F6000 X87.247 Y80.318
G1 F1200 X86.918 Y79.989 E0.70433
G0 F6000 X86.918 Y79.847
G1 F1200 X87.262 Y80.191 E0.70676
G0 F6000 X87.333 Y80.12
G1 F1200 X86.918 Y79.706 E0.70968
G0 F6000 X86.918 Y79.565
G1 F1200 X87.403 Y80.049 E0.7131
G0 F6000 X87.474 Y79.978
G1 F1200 X87.407 Y79.912 E0.71357
G0 F6000 X87.324 Y79.829
G1 F1200 X86.918 Y79.423 E0.71643
G0 F6000 X86.918 Y79.282
G1 F1200 X87.234 Y79.597 E0.71866
G0 F6000 X87.234 Y79.456
G1 F1200 X86.918 Y79.14 E0.72089
G0 F6000 X86.918 Y78.999
G1 F1200 X87.234 Y79.314 E0.72311
G0 F6000 X87.234 Y79.173
G1 F1200 X86.918 Y78.857 E0.72534
G0 F6000 X86.918 Y78.716
G1 F1200 X87.234 Y79.031 E0.72757
G0 F6000 X87.234 Y78.89
G1 F1200 X86.918 Y78.575 E0.7298
G0 F6000 X86.918 Y78.433
G1 F1200 X87.234 Y78.749 E0.73203
G0 F6000 X87.234 Y78.607
G1 F1200 X86.918 Y78.292 E0.73425
G0 F6000 X86.918 Y78.15
G1 F1200 X87.234 Y78.466 E0.73648
G0 F6000 X87.234 Y78.324
G1 F1200 X86.918 Y78.009 E0.73871
G0 F6000 X86.918 Y77.868
G1 F1200 X87.234 Y78.183 E0.74093
G0 F6000 X87.234 Y78.041
G1 F1200 X87.034 Y77.841 E0.74234
G0 F6000 X87.175 Y77.841
G1 F1200 X87.234 Y77.9 E0.74276
G0 F6000 X87.328 Y79.582
G0 X87.539 Y79.902
G1 F1200 X87.605 Y79.968 E0.74323
G0 F6000 X87.669 Y79.891
G1 F1200 X87.751 Y79.973 E0.74381
G0 F6000 X87.801 Y79.881
G1 F1200 X87.894 Y79.975 E0.74446
G0 F6000 X87.942 Y79.881
G1 F1200 X88.036 Y79.975 E0.74513
G0 F6000 X88.084 Y79.881
G1 F1200 X88.177 Y79.975 E0.74579
G0 F6000 X88.225 Y79.881
G1 F1200 X88.319 Y79.975 E0.74645
G0 F6000 X88.367 Y79.881
G1 F1200 X88.46 Y79.975 E0.74711
G0 F6000 X88.508 Y79.881
G1 F1200 X88.601 Y79.975 E0.74777
G0 F6000 X88.649 Y79.881
G1 F1200 X88.743 Y79.975 E0.74843
G0 F6000 X88.791 Y79.881
G1 F1200 X88.884 Y79.975 E0.74909
G0 F6000 X88.927 Y79.876
G1 F1200 X89.127 Y80.076 E0.7505
G0 F6000 X89.192 Y80.141
G1 F1200 X89.699 Y80.648 E0.75408
G0 F6000 X89.699 Y80.789
G1 F1200 X89.313 Y80.404 E0.7568
G0 F6000 X89.318 Y80.55
G1 F1200 X89.699 Y80.931 E0.75949
G0 F6000 X89.699 Y81.072
G1 F1200 X89.318 Y80.691 E0.76218
G0 F6000 X89.318 Y80.832
G1 F1200 X89.699 Y81.214 E0.76487
G0 F6000 X89.699 Y81.355
G1 F1200 X89.318 Y80.974 E0.76756
G0 F6000 X89.318 Y81.116
G1 F1200 X89.699 Y81.496 E0.77024
G0 F6000 X89.699 Y81.638
G1 F1200 X89.318 Y81.257 E0.77293
G0 F6000 X89.318 Y81.399
G1 F1200 X89.639 Y81.719 E0.77519
G0 F6000 X89.497 Y81.719
G1 F1200 X89.318 Y81.54 E0.77645
G0 F6000 X89.318 Y81.682
G1 F1200 X89.356 Y81.719 E0.77672
G0 F6000 X89.699 Y80.506
G1 F1200 X89.012 Y79.819 E0.78157
G0 F6000 X89.096 Y79.762
G1 F1200 X89.699 Y80.365 E0.78582
G0 F6000 X89.699 Y80.224
G1 F1200 X89.18 Y79.705 E0.78948
G0 F6000 X89.248 Y79.632
G1 F1200 X89.699 Y80.082 E0.79266
G0 F6000 X89.699 Y79.941
G1 F1200 X89.295 Y79.537 E0.79551
G0 F6000 X89.318 Y79.418
G1 F1200 X89.699 Y79.799 E0.7982
G0 F6000 X89.699 Y79.658
G1 F1200 X89.318 Y79.277 E0.80089
G0 F6000 X89.318 Y79.135
G1 F1200 X89.699 Y79.516 E0.80358
G0 F6000 X89.699 Y79.375
G1 F1200 X89.318 Y78.994 E0.80626
G0 F6000 X89.318 Y78.853
G1 F1200 X89.699 Y79.234 E0.80895
G0 F6000 X89.699 Y79.092
G1 F1200 X89.318 Y78.711 E0.81164
G0 F6000 X89.318 Y78.57
G1 F1200 X89.699 Y78.951 E0.81433
G0 F6000 X89.699 Y78.809
G1 F1200 X89.318 Y78.428 E0.81702
G0 F6000 X89.318 Y78.287
G1 F1200 X89.699 Y78.668 E0.81971
G0 F6000 X89.699 Y78.527
G1 F1200 X89.318 Y78.145 E0.8224
G0 F6000 X89.318 Y78.004
G1 F1200 X89.699 Y78.385 E0.82509
G0 F6000 X89.699 Y78.244
G1 F1200 X89.318 Y77.863 E0.82777
G0 F6000 X89.44 Y77.843
G1 F1200 X89.699 Y78.102 E0.8296
G0 F6000 X89.699 Y77.961
G1 F1200 X89.581 Y77.843 E0.83043
G0 F6000 X89.58 Y77.863
G0 X89.159 Y79.609
G0 X88.894 Y79.789
G0 X87.525 Y80.061
G0 X86.81 Y81.43
G0 X85.245 Y81.409
G0 X84.26 Y81.486
G0 X83.763 Y81.43
G0 X83.898 Y81.349
;TYPE:WALL-INNER
G1 F1200 X84.084 Y81.449 E0.83149
G1 X84.25 Y81.47 E0.83232
G1 X85.075 Y81.472 E0.83644
G1 X85.083 Y81.85 E0.83832
G1 X82.091 Y81.85 E0.85325
G1 X82.108 Y81.479 E0.8551
G1 X82.312 Y81.47 E0.85612
G1 X83.067 Y81.47 E0.85989
G1 X83.288 Y81.362 E0.86112
G1 X83.368 Y81.252 E0.8618
G1 X83.369 Y77.738 E0.87933
G1 X83.415 Y77.712 E0.87959
G1 X83.897 Y77.712 E0.88199
G1 X83.898 Y81.349 E0.90014
G0 F6000 X83.848 Y81.379
;TYPE:WALL-OUTER
G1 F1200 X84.069 Y81.498 E0.90139
G1 X84.244 Y81.52 E0.90227
G1 X85.026 Y81.522 E0.90617
G1 X85.032 Y81.8 E0.90756
G1 X82.143 Y81.8 E0.92197
G1 X82.156 Y81.527 E0.92334
G1 X82.313 Y81.52 E0.92412
G1 X83.079 Y81.52 E0.92794
G1 X83.32 Y81.402 E0.92928
G1 X83.418 Y81.267 E0.93011
G1 X83.419 Y77.767 E0.94758
G1 X83.428 Y77.762 E0.94763
G1 X83.847 Y77.762 E0.94972
G1 X83.848 Y81.379 E0.96776
G0 F6000 X83.808 Y81.403
;TYPE:SKIN
G1 F1200 X84.057 Y81.536 E0.96917
G1 X84.244 Y81.56 E0.97011
G1 X84.987 Y81.562 E0.97382
G1 X84.991 Y81.76 E0.97481
G1 X82.185 Y81.76 E0.98881
G1 X82.194 Y81.565 E0.98978
G1 X82.316 Y81.56 E0.99039
G1 X83.088 Y81.56 E0.99424
G1 X83.348 Y81.433 E0.99568
G1 X83.458 Y81.281 E0.99662
G1 X83.459 Y77.802 E1.01398
G1 X83.807 Y77.802 E1.01571
G1 X83.808 Y81.403 E1.03368
G0 F6000 X82.227 Y81.661
G1 F1200 X82.286 Y81.72 E1.03409
G0 F6000 X82.307 Y81.6
G1 F1200 X82.427 Y81.72 E1.03494
G0 F6000 X82.448 Y81.6
G1 F1200 X82.568 Y81.72 E1.03579
G0 F6000 X82.59 Y81.6
G1 F1200 X82.71 Y81.72 E1.03663
G0 F6000 X82.731 Y81.6
G1 F1200 X82.851 Y81.72 E1.03748
G0 F6000 X82.872 Y81.6
G1 F1200 X82.993 Y81.72 E1.03833
G0 F6000 X83.014 Y81.6
G1 F1200 X83.134 Y81.72 E1.03918
G0 F6000 X83.136 Y81.581
G1 F1200 X83.275 Y81.72 E1.04016
G0 F6000 X83.417 Y81.72
G1 F1200 X83.231 Y81.534 E1.04147
G0 F6000 X83.326 Y81.487
G1 F1200 X83.558 Y81.72 E1.04311
G0 F6000 X83.7 Y81.72
G1 F1200 X83.403 Y81.423 E1.04521
G0 F6000 X83.462 Y81.341
G1 F1200 X83.841 Y81.72 E1.04788
G0 F6000 X83.983 Y81.72
G1 F1200 X83.497 Y81.234 E1.05131
G0 F6000 X83.497 Y81.093
G1 F1200 X83.767 Y81.363 E1.05322
G0 F6000 X83.767 Y81.221
G1 F1200 X83.497 Y80.951 E1.05512
G0 F6000 X83.497 Y80.81
G1 F1200 X83.767 Y81.08 E1.05703
G0 F6000 X83.767 Y80.938
G1 F1200 X83.497 Y80.668 E1.05893
G0 F6000 X83.497 Y80.527
G1 F1200 X83.767 Y80.797 E1.06084
G0 F6000 X83.767 Y80.656
G1 F1200 X83.497 Y80.386 E1.06274
G0 F6000 X83.497 Y80.244
G1 F1200 X83.767 Y80.514 E1.06465
G0 F6000 X83.767 Y80.373
G1 F1200 X83.497 Y80.103 E1.06655
G0 F6000 X83.497 Y79.961
G1 F1200 X83.767 Y80.231 E1.06846
G0 F6000 X83.767 Y80.09
G1 F1200 X83.497 Y79.82 E1.07036
G0 F6000 X83.497 Y79.678
G1 F1200 X83.767 Y79.949 E1.07227
G0 F6000 X83.767 Y79.807
G1 F1200 X83.497 Y79.538 E1.07417
G0 F6000 X83.497 Y79.396
G1 F1200 X83.767 Y79.666 E1.07608
G0 F6000 X83.766 Y79.524
G1 F1200 X83.497 Y79.255 E1.07797
G0 F6000 X83.497 Y79.113
G1 F1200 X83.766 Y79.382 E1.07987
G0 F6000 X83.766 Y79.241
G1 F1200 X83.497 Y78.972 E1.08177
G0 F6000 X83.497 Y78.831
G1 F1200 X83.766 Y79.099 E1.08366
G0 F6000 X83.766 Y78.958
G1 F1200 X83.497 Y78.689 E1.08556
G0 F6000 X83.497 Y78.548
G1 F1200 X83.766 Y78.816 E1.08746
G0 F6000 X83.766 Y78.675
G1 F1200 X83.497 Y78.406 E1.08935
G0 F6000 X83.497 Y78.265
G1 F1200 X83.766 Y78.534 E1.09125
G0 F6000 X83.766 Y78.392
G1 F1200 X83.497 Y78.123 E1.09315
G0 F6000 X83.497 Y77.982
G1 F1200 X83.766 Y78.251 E1.09505
G0 F6000 X83.766 Y78.109
G1 F1200 X83.498 Y77.841 E1.09694
G0 F6000 X83.64 Y77.841
G1 F1200 X83.766 Y77.968 E1.09783
G0 F6000 X83.903 Y81.499
G1 F1200 X84.124 Y81.72 E1.09939
G0 F6000 X84.131 Y81.585
G1 F1200 X84.265 Y81.72 E1.10034
G0 F6000 X84.287 Y81.6
G1 F1200 X84.407 Y81.72 E1.10119
G0 F6000 X84.429 Y81.6
G1 F1200 X84.548 Y81.72 E1.10203
G0 F6000 X84.571 Y81.601
G1 F1200 X84.69 Y81.72 E1.10287
G0 F6000 X84.713 Y81.602
G1 F1200 X84.831 Y81.72 E1.1037
