;FLAVOR:Marlin
;TIME:970
;Filament used: 0.0831554m
;Layer height: 0.12
;MINX:2.001
;MINY:10.814
;MINZ:0.12
;MAXX:90.986
;MAXY:44.056
;MAXZ:0.12
;Generated with Cura_SteamEngine 4.12.1
M105
M109 S0
M82 ;absolute extrusion mode
; Ender 3 Custom Start G-code
;G92 E0 ; Reset Extruder
;G1 Z2.0 F3000 ; Move Z Axis up little to prevent scratching of Heat Bed
;G1 X0.1 Y20 Z0.3 F5000.0 ; Move to start position
;G1 X0.1 Y200.0 Z0.3 F1500.0 E15 ; Draw the first line
;G1 X0.4 Y200.0 Z0.3 F5000.0 ; Move to side a little
;G1 X0.4 Y20 Z0.3 F1500.0 E30 ; Draw the second line
;G92 E0 ; Reset Extruder
;G1 Z2.0 F3000 ; Move Z Axis up little to prevent scratching of Heat Bed
;G1 X5 Y20 Z0.3 F5000.0 ; Move over to prevent blob squish
G92 E0
G92 E0
;LAYER_COUNT:1
;LAYER:0
M107
;MESH:Ford_logo_flat.jpg
G0 F6000 X68.35 Y40.95
;TYPE:WALL-INNER
M106
G1 F1200 X68.807 Y40.838 E0.00235
G1 X70.157 Y40.549 E0.00924
G1 X70.838 Y40.38 E0.01274
G1 X71.17 Y40.286 E0.01446
G1 X71.44 Y40.22 E0.01584
G1 X71.9 Y40.093 E0.01822
G1 X72.352 Y39.979 E0.02055
G1 X72.818 Y39.851 E0.02296
G1 X73.755 Y39.587 E0.02782
G1 X74.216 Y39.447 E0.03022
G1 X74.55 Y39.33 E0.03199
G1 X75.732 Y38.958 E0.03817
G1 X75.905 Y38.9 E0.03908
G1 X76.25 Y38.775 E0.04091
G1 X76.575 Y38.671 E0.04261
G1 X76.756 Y38.61 E0.04357
G1 X77.29 Y38.415 E0.0464
G1 X77.596 Y38.292 E0.04805
G1 X77.931 Y38.171 E0.04982
G1 X78.608 Y37.901 E0.05346
G1 X78.956 Y37.754 E0.05535
G1 X79.281 Y37.63 E0.05708
G1 X79.623 Y37.481 E0.05894
G1 X79.957 Y37.346 E0.06074
G1 X80.3 Y37.192 E0.06262
G1 X80.978 Y36.872 E0.06636
G1 X81.655 Y36.532 E0.07014
G1 X81.993 Y36.352 E0.07205
G1 X82.33 Y36.18 E0.07393
G1 X83.009 Y35.798 E0.07782
G1 X83.686 Y35.395 E0.08175
G1 X84.025 Y35.18 E0.08375
G1 X84.225 Y35.041 E0.08497
G1 X84.633 Y34.768 E0.08742
G1 X84.699 Y34.727 E0.08781
G1 X85.045 Y34.483 E0.08992
G1 X85.383 Y34.226 E0.09204
G1 X85.647 Y34.019 E0.09371
G1 X85.722 Y33.964 E0.09417
G1 X86.062 Y33.666 E0.09643
G1 X86.115 Y33.622 E0.09677
G1 X86.403 Y33.398 E0.09859
G1 X86.476 Y33.33 E0.09909
G1 X86.745 Y33.091 E0.10089
G1 X87.085 Y32.753 E0.10328
G1 X87.189 Y32.646 E0.10402
G1 X87.427 Y32.388 E0.10577
G1 X87.795 Y31.958 E0.1086
G1 X87.866 Y31.86 E0.1092
G1 X88.057 Y31.615 E0.11075
G1 X88.313 Y31.27 E0.11289
G1 X88.452 Y31.058 E0.11416
G1 X88.661 Y30.716 E0.11616
G1 X88.795 Y30.478 E0.11752
G1 X88.929 Y30.232 E0.11892
G1 X89.087 Y29.887 E0.12081
G1 X89.225 Y29.541 E0.12267
G1 X89.345 Y29.194 E0.1245
G1 X89.423 Y28.91 E0.12597
G1 X89.443 Y28.847 E0.1263
G1 X89.521 Y28.464 E0.12825
G1 X89.578 Y28.154 E0.12982
G1 X89.611 Y27.801 E0.13159
G1 X89.621 Y27.454 E0.13332
G1 X89.611 Y27.107 E0.13506
G1 X89.581 Y26.752 E0.13683
G1 X89.566 Y26.676 E0.13722
G1 X89.521 Y26.376 E0.13873
G1 X89.464 Y26.066 E0.14031
G1 X89.39 Y25.81 E0.14164
G1 X89.219 Y25.284 E0.1444
G1 X88.908 Y24.559 E0.14833
G1 X88.585 Y24.005 E0.15153
G1 X88.444 Y23.793 E0.1528
G1 X88.266 Y23.489 E0.15456
G1 X87.969 Y23.097 E0.15701
G1 X87.755 Y22.862 E0.1586
G1 X87.551 Y22.619 E0.16018
G1 X87.327 Y22.368 E0.16186
G1 X87.072 Y22.106 E0.16368
G1 X86.839 Y21.823 E0.16551
G1 X86.542 Y21.592 E0.16739
G1 X86.289 Y21.348 E0.16914
G1 X86.057 Y21.162 E0.17063
G1 X85.714 Y20.896 E0.17279
G1 X85.549 Y20.725 E0.17398
G1 X85.324 Y20.599 E0.17526
G1 X85.158 Y20.433 E0.17643
G1 X84.832 Y20.229 E0.17835
G1 X84.555 Y20.015 E0.1801
G1 X84.313 Y19.878 E0.18149
G1 X84.011 Y19.68 E0.18329
G1 X83.79 Y19.54 E0.18459
G1 X83.515 Y19.356 E0.18624
G1 X83.284 Y19.237 E0.18754
G1 X82.995 Y19.059 E0.18923
G1 X82.872 Y18.98 E0.18996
G1 X82.644 Y18.863 E0.19124
G1 X82.32 Y18.671 E0.19312
G1 X82.027 Y18.513 E0.19478
G1 X81.772 Y18.37 E0.19624
G1 X81.542 Y18.274 E0.19748
G1 X81.296 Y18.165 E0.19883
G1 X80.975 Y17.994 E0.20064
G1 X80.659 Y17.846 E0.20238
G1 X80.404 Y17.715 E0.20381
G1 X80.174 Y17.615 E0.20506
G1 X79.936 Y17.505 E0.20637
G1 X79.699 Y17.402 E0.20766
G1 X79.61 Y17.373 E0.20813
G1 X79.286 Y17.241 E0.20987
G1 X78.99 Y17.101 E0.21151
G1 X78.938 Y17.088 E0.21177
G1 X78.502 Y16.908 E0.21413
G1 X78.272 Y16.825 E0.21535
G1 X78.015 Y16.712 E0.21675
G1 X77.771 Y16.625 E0.21804
G1 X77.351 Y16.468 E0.22028
G1 X77.035 Y16.343 E0.22197
G1 X76.919 Y16.305 E0.22258
G1 X76.539 Y16.163 E0.22461
G1 X76.28 Y16.069 E0.22598
G1 X76.028 Y15.996 E0.22729
G1 X75.519 Y15.83 E0.22996
G1 X75.251 Y15.745 E0.23136
G1 X75.007 Y15.664 E0.23265
G1 X74.751 Y15.585 E0.23398
G1 X74.232 Y15.412 E0.23671
G1 X73.978 Y15.336 E0.23803
G1 X73.124 Y15.102 E0.24245
G1 X72.655 Y14.97 E0.24488
G1 X72.385 Y14.903 E0.24627
G1 X72.116 Y14.829 E0.24766
G1 X71.866 Y14.777 E0.24894
G1 X71.589 Y14.687 E0.25039
G1 X71.179 Y14.574 E0.25251
G1 X71.061 Y14.54 E0.25312
G1 X70.583 Y14.424 E0.25558
G1 X70.243 Y14.338 E0.25733
G1 X69.966 Y14.278 E0.25874
G1 X69.419 Y14.151 E0.26154
G1 X69.136 Y14.091 E0.26299
G1 X68.869 Y14.023 E0.26436
G1 X68.59 Y13.964 E0.26578
G1 X68.318 Y13.901 E0.26718
G1 X68.036 Y13.839 E0.26862
G1 X67.754 Y13.787 E0.27005
G1 X67.456 Y13.724 E0.27157
G1 X67.187 Y13.674 E0.27293
G1 X66.91 Y13.613 E0.27435
G1 X66.618 Y13.564 E0.27582
G1 X66.334 Y13.51 E0.27727
G1 X66.108 Y13.476 E0.27841
G1 X65.429 Y13.353 E0.28185
G1 X65.184 Y13.314 E0.28309
G1 X64.615 Y13.207 E0.28598
G1 X63.736 Y13.073 E0.29041
G1 X63.407 Y13.012 E0.29208
G1 X62.868 Y12.925 E0.29481
G1 X62.388 Y12.861 E0.29722
G1 X62.275 Y12.844 E0.29779
G1 X61.977 Y12.807 E0.29929
G1 X61.682 Y12.76 E0.30078
G1 X61.369 Y12.733 E0.30235
G1 X61.092 Y12.679 E0.30376
G1 X61.047 Y12.674 E0.30398
G1 X60.798 Y12.635 E0.30524
G1 X60.199 Y12.559 E0.30825
G1 X59.902 Y12.517 E0.30975
G1 X59.296 Y12.442 E0.31279
G1 X58.982 Y12.413 E0.31437
G1 X58.699 Y12.396 E0.31578
G1 X58.341 Y12.354 E0.31758
G1 X58 Y12.324 E0.31929
G1 X57.739 Y12.307 E0.32059
G1 X57.33 Y12.269 E0.32264
G1 X56.988 Y12.231 E0.32436
G1 X56.814 Y12.219 E0.32523
G1 X55.891 Y12.132 E0.32985
G1 X55.571 Y12.112 E0.33145
G1 X55.304 Y12.089 E0.33279
G1 X55.266 Y12.084 E0.33298
G1 X54.942 Y12.064 E0.3346
G1 X54.613 Y12.054 E0.33624
G1 X54.292 Y12.026 E0.33785
G1 X53.951 Y12.004 E0.33956
G1 X53.618 Y11.992 E0.34122
G1 X53.029 Y11.955 E0.34416
G1 X52.944 Y11.953 E0.34459
G1 X52.393 Y11.918 E0.34734
G1 X51.592 Y11.871 E0.35134
G1 X51.437 Y11.865 E0.35212
G1 X51.116 Y11.845 E0.35372
G1 X50.579 Y11.833 E0.3564
G1 X50.126 Y11.818 E0.35866
G1 X49.903 Y11.819 E0.35978
G1 X49.564 Y11.809 E0.36147
G1 X49.23 Y11.809 E0.36313
G1 X48.474 Y11.787 E0.36691
G1 X47.882 Y11.788 E0.36986
G1 X47.205 Y11.768 E0.37324
G1 X45.456 Y11.769 E0.38197
G1 X44.838 Y11.788 E0.38505
G1 X44.504 Y11.788 E0.38672
G1 X44.07 Y11.801 E0.38888
G1 X43.736 Y11.801 E0.39055
G1 X43.385 Y11.811 E0.3923
G1 X43.052 Y11.811 E0.39396
G1 X42.478 Y11.83 E0.39683
G1 X42.354 Y11.832 E0.39745
G1 X41.803 Y11.85 E0.4002
G1 X41.289 Y11.88 E0.40277
G1 X41.128 Y11.886 E0.40357
G1 X40.45 Y11.929 E0.40696
G1 X40.227 Y11.935 E0.40807
G1 X39.107 Y12.003 E0.41367
G1 X38.803 Y12.011 E0.41519
G1 X37.719 Y12.08 E0.42061
G1 X37.345 Y12.115 E0.42248
G1 X36.956 Y12.162 E0.42444
G1 X36.587 Y12.197 E0.42628
G1 X36.401 Y12.221 E0.42722
G1 X35.845 Y12.267 E0.43
G1 X35.06 Y12.342 E0.43394
G1 X34.743 Y12.362 E0.43552
G1 X33.995 Y12.431 E0.43927
G1 X33.362 Y12.51 E0.44245
G1 X32.832 Y12.579 E0.44512
G1 X32.354 Y12.652 E0.44753
G1 X31.285 Y12.782 E0.4529
G1 X30.91 Y12.82 E0.45478
G1 X30.135 Y12.918 E0.45868
G1 X29.651 Y12.993 E0.46113
G1 X29.249 Y13.064 E0.46316
G1 X28.976 Y13.105 E0.46454
G1 X28.632 Y13.168 E0.46628
G1 X28.302 Y13.219 E0.46795
G1 X27.627 Y13.343 E0.47137
G1 X27.291 Y13.394 E0.47307
G1 X26.888 Y13.467 E0.47511
G1 X26.616 Y13.51 E0.47649
G1 X25.938 Y13.638 E0.47993
G1 X25.257 Y13.786 E0.48341
G1 X24.918 Y13.873 E0.48515
G1 X24.592 Y13.945 E0.48682
G1 X24.344 Y13.991 E0.48808
G1 X24.248 Y14.012 E0.48857
G1 X23.906 Y14.094 E0.49032
G1 X23.578 Y14.155 E0.49199
G1 X22.901 Y14.3 E0.49544
G1 X22.168 Y14.479 E0.4992
G1 X21.715 Y14.593 E0.50153
G1 X21.208 Y14.732 E0.50416
G1 X20.768 Y14.866 E0.50645
G1 X20.2 Y15.027 E0.5094
G1 X19.185 Y15.283 E0.51462
G1 X18.841 Y15.39 E0.51642
G1 X18.167 Y15.618 E0.51997
G1 X17.829 Y15.73 E0.52174
G1 X17.157 Y15.937 E0.52525
G1 X16.422 Y16.182 E0.52912
G1 X16.143 Y16.272 E0.53058
G1 X15.798 Y16.4 E0.53241
G1 X14.448 Y16.954 E0.5397
G1 X13.951 Y17.141 E0.54234
G1 X13.779 Y17.203 E0.54326
G1 X13.434 Y17.339 E0.54511
G1 X12.082 Y17.957 E0.55252
G1 X11.66 Y18.166 E0.55487
G1 X10.389 Y18.823 E0.56201
G1 X9.661 Y19.238 E0.56619
G1 X9.368 Y19.41 E0.56789
G1 X9.189 Y19.533 E0.56897
G1 X8.651 Y19.877 E0.57216
G1 X8.353 Y20.079 E0.57395
G1 X8.014 Y20.316 E0.57602
G1 X7.589 Y20.638 E0.57868
G1 X7.337 Y20.821 E0.58023
G1 X6.991 Y21.105 E0.58246
G1 X6.655 Y21.395 E0.58468
G1 X6.313 Y21.705 E0.58698
G1 X5.739 Y22.265 E0.59098
G1 X5.63 Y22.38 E0.59177
G1 X5.427 Y22.609 E0.5933
G1 X5.133 Y22.952 E0.59555
G1 X4.952 Y23.187 E0.59703
G1 X4.865 Y23.296 E0.59773
G1 X4.607 Y23.656 E0.59994
G1 X4.393 Y23.985 E0.6019
G1 X4.185 Y24.334 E0.60392
G1 X4.014 Y24.676 E0.60583
G1 X3.855 Y25.024 E0.60774
G1 X3.715 Y25.37 E0.6096
G1 X3.595 Y25.717 E0.61143
G1 X3.503 Y26.063 E0.61322
G1 X3.427 Y26.414 E0.61501
G1 X3.38 Y26.765 E0.61678
G1 X3.354 Y27.108 E0.61849
G1 X3.344 Y27.456 E0.62023
G1 X3.354 Y27.803 E0.62196
G1 X3.385 Y28.154 E0.62372
G1 X3.438 Y28.498 E0.62546
G1 X3.521 Y28.901 E0.62751
G1 X3.616 Y29.196 E0.62906
G1 X3.779 Y29.682 E0.63161
G1 X3.884 Y29.927 E0.63294
G1 X3.924 Y29.989 E0.63331
G1 X4.103 Y30.395 E0.63552
G1 X4.228 Y30.62 E0.63681
G1 X4.271 Y30.666 E0.63712
G1 X4.411 Y30.913 E0.63854
G1 X4.474 Y31.057 E0.63932
G1 X4.63 Y31.239 E0.64052
G1 X4.76 Y31.459 E0.64179
G1 X4.914 Y31.66 E0.64306
G1 X5.159 Y31.949 E0.64495
G1 X5.21 Y32.049 E0.64551
G1 X5.453 Y32.286 E0.6472
G1 X5.524 Y32.414 E0.64793
G1 X5.769 Y32.628 E0.64955
G1 X5.858 Y32.768 E0.65038
G1 X6.117 Y32.973 E0.65203
G1 X6.201 Y33.104 E0.65281
G1 X6.483 Y33.317 E0.65457
G1 X6.56 Y33.43 E0.65525
G1 X6.877 Y33.659 E0.6572
G1 X7.128 Y33.888 E0.6589
G1 X7.498 Y34.191 E0.66128
G1 X7.723 Y34.326 E0.66259
G1 X7.891 Y34.489 E0.66376
G1 X8.104 Y34.611 E0.66499
G1 X8.365 Y34.792 E0.66657
G1 X8.498 Y34.893 E0.6674
G1 X8.721 Y35.027 E0.6687
G1 X8.901 Y35.177 E0.66987
G1 X9.25 Y35.37 E0.67186
G1 X9.537 Y35.558 E0.67357
G1 X9.82 Y35.715 E0.67519
G1 X10.188 Y35.931 E0.67731
G1 X10.429 Y36.056 E0.67867
G1 X10.735 Y36.228 E0.68042
G1 X11.056 Y36.389 E0.68221
G1 X11.279 Y36.528 E0.68352
G1 X11.511 Y36.641 E0.68481
G1 X11.757 Y36.744 E0.68614
G1 X12.092 Y36.916 E0.68802
G1 X12.766 Y37.228 E0.69173
G1 X13.129 Y37.4 E0.69373
G1 X13.368 Y37.505 E0.69503
G1 X14.114 Y37.78 E0.699
G1 X15.544 Y38.365 E0.70671
G1 X15.775 Y38.448 E0.70793
G1 X16.039 Y38.556 E0.70935
G1 X16.546 Y38.725 E0.71202
G1 X16.824 Y38.813 E0.71348
G1 X17.303 Y38.978 E0.716
G1 X17.498 Y39.035 E0.71702
G1 X17.757 Y39.124 E0.71838
G1 X18.074 Y39.227 E0.72005
G1 X18.169 Y39.252 E0.72054
G1 X19.091 Y39.56 E0.72539
G1 X19.188 Y39.582 E0.72588
G1 X19.524 Y39.674 E0.72762
G1 X20.183 Y39.837 E0.73101
G1 X20.536 Y39.931 E0.73283
G1 X20.873 Y40.024 E0.73457
G1 X21.189 Y40.12 E0.73622
G1 X21.492 Y40.208 E0.73779
G1 X21.753 Y40.277 E0.73914
G1 X21.883 Y40.318 E0.73982
G1 X22.291 Y40.421 E0.74192
G1 X22.573 Y40.481 E0.74336
G1 X22.839 Y40.55 E0.74473
G1 X23.109 Y40.616 E0.74612
G1 X23.392 Y40.671 E0.74756
G1 X23.95 Y40.794 E0.75041
G1 X24.255 Y40.85 E0.75195
G1 X24.513 Y40.907 E0.75327
G1 X24.782 Y40.962 E0.75464
G1 X25.054 Y41.031 E0.75604
G1 X25.336 Y41.09 E0.75748
G1 X25.645 Y41.166 E0.75907
G1 X25.887 Y41.219 E0.7603
G1 X26.28 Y41.291 E0.7623
G1 X26.76 Y41.365 E0.76472
G1 X27.042 Y41.419 E0.76615
G1 X27.286 Y41.455 E0.76738
G1 X27.902 Y41.57 E0.77051
G1 X28.191 Y41.615 E0.77197
G1 X28.636 Y41.697 E0.77422
G1 X28.973 Y41.753 E0.77593
G1 X29.339 Y41.82 E0.77779
G1 X29.99 Y41.918 E0.78107
G1 X30.33 Y41.963 E0.78278
G1 X30.518 Y41.993 E0.78373
G1 X31.124 Y42.068 E0.78678
G1 X31.413 Y42.11 E0.78823
G1 X31.71 Y42.149 E0.78973
G1 X32.018 Y42.177 E0.79127
G1 X32.348 Y42.227 E0.79294
G1 X32.603 Y42.268 E0.79423
G1 X33.209 Y42.342 E0.79727
G1 X33.36 Y42.365 E0.79803
G1 X33.807 Y42.422 E0.80028
G1 X34.427 Y42.477 E0.80339
G1 X37.753 Y42.782 E0.82005
G1 X38.789 Y42.846 E0.82523
G1 X39.102 Y42.854 E0.82679
G1 X40.071 Y42.916 E0.83163
G1 X40.113 Y42.916 E0.83184
G1 X40.704 Y42.953 E0.8348
G1 X41.125 Y42.968 E0.8369
G1 X41.802 Y43.009 E0.84028
G1 X42.482 Y43.03 E0.84368
G1 X42.816 Y43.03 E0.84534
G1 X43.492 Y43.05 E0.84872
G1 X43.642 Y43.051 E0.84947
G1 X43.973 Y43.061 E0.85112
G1 X44.164 Y43.061 E0.85207
G1 X44.504 Y43.071 E0.85377
G1 X44.838 Y43.071 E0.85543
G1 X45.178 Y43.081 E0.85713
G1 X45.51 Y43.081 E0.85879
G1 X45.63 Y43.086 E0.85939
G1 X46.29 Y43.103 E0.86268
G1 X46.972 Y43.099 E0.86608
G1 X47.671 Y43.078 E0.86957
G1 X48.005 Y43.078 E0.87124
G1 X48.355 Y43.068 E0.87299
G1 X48.688 Y43.068 E0.87465
G1 X49.04 Y43.057 E0.8764
G1 X49.373 Y43.057 E0.87807
G1 X50.071 Y43.036 E0.88155
G1 X50.405 Y43.036 E0.88322
G1 X51.254 Y43.009 E0.88745
G1 X52.606 Y42.927 E0.89421
G1 X52.939 Y42.916 E0.89587
G1 X53.954 Y42.855 E0.90095
G1 X54.31 Y42.843 E0.90272
G1 X55.034 Y42.797 E0.90634
G1 X55.402 Y42.764 E0.90819
G1 X55.642 Y42.747 E0.90939
G1 X56.889 Y42.631 E0.91563
G1 X56.995 Y42.617 E0.91617
G1 X57.667 Y42.556 E0.91953
G1 X58.01 Y42.516 E0.92126
G1 X58.37 Y42.492 E0.92306
G1 X59.352 Y42.398 E0.92798
G1 X59.692 Y42.35 E0.92969
G1 X60.031 Y42.308 E0.9314
G1 X60.371 Y42.259 E0.93311
G1 X62.21 Y42.028 E0.94236
G1 X62.61 Y41.967 E0.94438
G1 X62.73 Y41.952 E0.94498
G1 X63.072 Y41.899 E0.94671
G1 X63.421 Y41.835 E0.94848
G1 X63.741 Y41.795 E0.95008
G1 X64.082 Y41.74 E0.95181
G1 X64.416 Y41.677 E0.9535
G1 X64.617 Y41.646 E0.95452
G1 X65.444 Y41.496 E0.95871
G1 X66.103 Y41.394 E0.96204
G1 X66.649 Y41.299 E0.9648
G1 X66.782 Y41.273 E0.96548
G1 X67.117 Y41.2 E0.96719
G1 X67.493 Y41.129 E0.9691
G1 X67.924 Y41.036 E0.9713
G1 X68.35 Y40.95 E0.97347
G0 F6000 X68.362 Y40.999
;TYPE:WALL-OUTER
G1 F1200 X68.818 Y40.887 E0.97581
G1 X70.169 Y40.598 E0.9827
G1 X70.85 Y40.429 E0.9862
G1 X71.183 Y40.334 E0.98793
G1 X71.452 Y40.268 E0.98931
G1 X71.913 Y40.141 E0.9917
G1 X72.365 Y40.027 E0.99402
G1 X72.831 Y39.899 E0.99643
G1 X73.77 Y39.635 E1.0013
G1 X74.231 Y39.494 E1.00371
G1 X74.566 Y39.377 E1.00548
G1 X75.747 Y39.006 E1.01165
G1 X75.92 Y38.948 E1.01256
G1 X76.266 Y38.822 E1.0144
G1 X76.59 Y38.719 E1.0161
G1 X76.771 Y38.658 E1.01705
G1 X77.307 Y38.461 E1.0199
G1 X77.614 Y38.339 E1.02155
G1 X77.948 Y38.218 E1.02332
G1 X78.627 Y37.947 E1.02697
G1 X78.975 Y37.8 E1.02885
G1 X79.301 Y37.676 E1.03059
G1 X79.642 Y37.527 E1.03245
G1 X79.977 Y37.392 E1.03425
G1 X80.32 Y37.238 E1.03612
G1 X80.998 Y36.918 E1.03987
G1 X81.677 Y36.577 E1.04366
G1 X82.016 Y36.396 E1.04557
G1 X82.353 Y36.225 E1.04746
G1 X83.034 Y35.842 E1.05136
G1 X83.712 Y35.438 E1.05529
G1 X84.054 Y35.221 E1.05731
G1 X84.254 Y35.082 E1.05853
G1 X84.661 Y34.81 E1.06097
G1 X84.728 Y34.768 E1.06137
G1 X85.074 Y34.524 E1.06348
G1 X85.413 Y34.266 E1.0656
G1 X85.677 Y34.059 E1.06728
G1 X85.755 Y34.002 E1.06776
G1 X86.094 Y33.704 E1.07001
G1 X86.146 Y33.661 E1.07035
G1 X86.434 Y33.438 E1.07217
G1 X86.51 Y33.367 E1.07268
G1 X86.778 Y33.128 E1.07448
G1 X87.12 Y32.788 E1.07688
G1 X87.226 Y32.68 E1.07764
G1 X87.464 Y32.422 E1.07939
G1 X87.836 Y31.987 E1.08224
G1 X87.906 Y31.89 E1.08284
G1 X88.096 Y31.646 E1.08438
G1 X88.353 Y31.3 E1.08653
G1 X88.494 Y31.085 E1.08782
G1 X88.704 Y30.742 E1.08982
G1 X88.839 Y30.503 E1.09119
G1 X88.972 Y30.257 E1.09259
G1 X89.132 Y29.908 E1.0945
G1 X89.271 Y29.56 E1.09637
G1 X89.392 Y29.21 E1.09822
G1 X89.471 Y28.924 E1.0997
G1 X89.491 Y28.863 E1.10002
G1 X89.57 Y28.474 E1.102
G1 X89.628 Y28.161 E1.10359
G1 X89.661 Y27.806 E1.10537
G1 X89.671 Y27.455 E1.10712
G1 X89.661 Y27.106 E1.10886
G1 X89.631 Y26.748 E1.11065
G1 X89.615 Y26.667 E1.11107
G1 X89.57 Y26.369 E1.11257
G1 X89.512 Y26.053 E1.11417
G1 X89.438 Y25.796 E1.11551
G1 X89.353 Y25.529 E1.1169
G1 X89.267 Y25.269 E1.11827
G1 X89.155 Y25.007 E1.11969
G1 X88.954 Y24.539 E1.12223
G1 X88.82 Y24.309 E1.12356
G1 X88.627 Y23.977 E1.12548
G1 X88.486 Y23.766 E1.12674
G1 X88.306 Y23.459 E1.12852
G1 X88.006 Y23.063 E1.131
G1 X87.793 Y22.829 E1.13258
G1 X87.589 Y22.587 E1.13416
