;FLAVOR:Marlin
;TIME:487
;Filament used: 0.0260128m
;Layer height: 0.12
;MINX:19.893
;MINY:66.448
;MINZ:0.12
;MAXX:83.277
;MAXY:144.191
;MAXZ:0.12
;Generated with Cura_SteamEngine 4.12.1
G28
M105
M109 S0
M82 ;absolute extrusion mode
; Ender 3 Custom Start G-code
;G92 E0 ; Reset Extruder
;G1 Z2.0 F3000 ; Move Z Axis up little to prevent scratching of Heat Bed
;G1 X0.1 Y20 Z0.3 F5000.0 ; Move to start position
;G1 X0.1 Y200.0 Z0.3 F1500.0 E15 ; Draw the first line
;G1 X0.4 Y200.0 Z0.3 F5000.0 ; Move to side a little
;G1 X0.4 Y20 Z0.3 F1500.0 E30 ; Draw the second line
;G92 E0 ; Reset Extruder
;G1 Z2.0 F3000 ; Move Z Axis up little to prevent scratching of Heat Bed
;G1 X5 Y20 Z0.3 F5000.0 ; Move over to prevent blob squish
G92 E0
G92 E0
;LAYER_COUNT:1
;LAYER:0
M107
;MESH:ryanhead_monochrome.png
G0 F6000 X66.124 Y141.92 Z100
;TYPE:WALL-INNER
M106
G1 F1200 X65.938 Y141.92 E0.00093
G1 X65.912 Y141.858 E0.00126
G1 X66.064 Y141.708 E0.00233
G1 X66.125 Y141.734 E0.00266
G1 X66.124 Y141.92 E0.00359
G0 F6000 X66.074 Y141.87
;TYPE:WALL-OUTER
G1 F1200 X65.971 Y141.87 E0.0041
G1 X66.075 Y141.767 E0.00483
G1 X66.074 Y141.87 E0.00535
G0 F6000 X66.099 Y141.812
G0 X66.552 Y141.757
G0 X66.585 Y140.611
G0 X66.775 Y140.661
;TYPE:WALL-INNER
G1 F1200 X66.775 Y140.474 E0.00628
G1 X66.962 Y140.475 E0.00721
G1 X66.987 Y140.537 E0.00755
G1 X66.837 Y140.687 E0.0086
G1 X66.775 Y140.661 E0.00894
G0 F6000 X66.825 Y140.628
;TYPE:WALL-OUTER
G1 F1200 X66.825 Y140.524 E0.00946
G1 X66.928 Y140.525 E0.00997
G1 X66.825 Y140.628 E0.0107
G0 F6000 X66.811 Y140.572
G0 X67.003 Y140.297
G0 X67.185 Y140.078
G0 X67.039 Y139.141
G0 X66.772 Y139.13
G0 X66.59 Y138.682
G0 X67.068 Y138.27
G0 X67.068 Y138.01
G0 X66.988 Y138.08
;TYPE:WALL-INNER
G1 F1200 X66.962 Y138.018 E0.01103
G1 X67.124 Y137.857 E0.01217
G1 X67.349 Y137.857 E0.0133
G1 X67.349 Y138.08 E0.01441
G1 X66.988 Y138.08 E0.01621
G0 F6000 X67.021 Y138.03
;TYPE:WALL-OUTER
G1 F1200 X67.145 Y137.907 E0.01708
G1 X67.299 Y137.907 E0.01785
G1 X67.299 Y138.03 E0.01846
G1 X67.021 Y138.03 E0.01985
G0 F6000 X67.16 Y137.98
G0 X67.539 Y138.015
G0 X67.288 Y138.477
G0 X67.501 Y138.622
G0 X68.173 Y138.704
G0 X68.173 Y138.778
;TYPE:WALL-INNER
G1 F1200 X67.699 Y138.778 E0.02221
G1 X67.525 Y138.952 E0.02344
G1 X66.949 Y138.952 E0.02632
G1 X66.948 Y138.73 E0.02742
G1 X67.3 Y138.729 E0.02918
G1 X67.474 Y138.554 E0.03041
G1 X68.699 Y138.554 E0.03652
G1 X68.873 Y138.38 E0.03775
G1 X69.224 Y138.379 E0.0395
G1 X69.387 Y138.216 E0.04065
G1 X69.449 Y138.242 E0.04099
G1 X69.449 Y138.605 E0.0428
G1 X69.275 Y138.777 E0.04402
G1 X68.573 Y138.778 E0.04752
G1 X68.399 Y138.952 E0.04875
G1 X68.174 Y138.953 E0.04987
G1 X68.173 Y138.778 E0.05074
G0 F6000 X68.223 Y138.728
;TYPE:WALL-OUTER
G1 F1200 X67.679 Y138.728 E0.05346
G1 X67.504 Y138.902 E0.05469
G1 X66.999 Y138.902 E0.05721
G1 X66.998 Y138.78 E0.05782
G1 X67.32 Y138.779 E0.05942
G1 X67.495 Y138.604 E0.06066
G1 X68.719 Y138.604 E0.06676
G1 X68.894 Y138.43 E0.068
G1 X69.244 Y138.429 E0.06974
G1 X69.399 Y138.275 E0.07083
G1 X69.399 Y138.584 E0.07237
G1 X69.254 Y138.727 E0.07339
G1 X68.553 Y138.728 E0.07689
G1 X68.378 Y138.902 E0.07812
G1 X68.224 Y138.903 E0.07889
G1 X68.223 Y138.728 E0.07976
G0 F6000 X68.263 Y138.688
;TYPE:SKIN
G1 F1200 X67.661 Y138.688 E0.08276
G1 X67.489 Y138.862 E0.08398
G1 X67.039 Y138.862 E0.08623
G1 X67.038 Y138.82 E0.08644
G1 X67.338 Y138.819 E0.08794
G1 X67.51 Y138.644 E0.08916
G1 X68.737 Y138.644 E0.09528
G1 X68.909 Y138.47 E0.0965
G1 X69.262 Y138.469 E0.09826
G1 X69.359 Y138.371 E0.09895
G1 X69.359 Y138.568 E0.09993
G1 X69.238 Y138.687 E0.10078
G1 X68.535 Y138.688 E0.10429
G1 X68.363 Y138.862 E0.10551
G1 X68.264 Y138.863 E0.106
G1 X68.263 Y138.688 E0.10688
G0 F6000 X67.467 Y138.743
G1 F1200 X67.508 Y138.784 E0.10716
G0 F6000 X67.578 Y138.713
G1 F1200 X67.548 Y138.683 E0.10738
G0 F6000 X68.302 Y138.73
G1 F1200 X68.369 Y138.797 E0.10785
G0 F6000 X68.44 Y138.726
G1 F1200 X68.397 Y138.683 E0.10815
G0 F6000 X68.857 Y138.578
G1 F1200 X68.925 Y138.646 E0.10863
G0 F6000 X68.93 Y138.509
G1 F1200 X69.066 Y138.645 E0.10959
G0 F6000 X69.071 Y138.509
G1 F1200 X69.208 Y138.645 E0.11055
G0 F6000 X69.285 Y138.582
G1 F1200 X69.213 Y138.509 E0.11107
G0 F6000 X69.372 Y138.315
;TYPE:SKIN
G1 F1200 X69.357 Y138.3 E0.11112
G0 F6000 X69.393 Y138.265
G1 F1200 X69.409 Y138.281 E0.11118
G0 F6000 X69.339 Y138.404
G0 X69.638 Y138.321
G0 X69.876 Y136.519
G0 X67.952 Y137.217
G0 X67.472 Y137.209
G0 X67.122 Y137.035
G0 X67.397 Y136.449
G0 X69.146 Y134.528
G0 X74.4 Y130.192
G0 X77.505 Y124.895
G0 X77.358 Y124.639
G0 X77.271 Y124.773
;TYPE:WALL-INNER
G1 F1200 X77.271 Y124.585 E0.11211
G1 X77.445 Y124.413 E0.11333
G1 X77.445 Y123.54 E0.11769
G1 X77.621 Y123.539 E0.11857
G1 X77.795 Y123.365 E0.1198
G1 X77.796 Y123.189 E0.12067
G1 X77.97 Y123.015 E0.1219
G1 X78.371 Y123.015 E0.1239
G1 X78.37 Y123.938 E0.12851
G1 X78.195 Y123.938 E0.12938
G1 X78.021 Y124.112 E0.13061
G1 X78.021 Y124.636 E0.13322
G1 X77.495 Y124.636 E0.13585
G1 X77.333 Y124.799 E0.13699
G1 X77.271 Y124.773 E0.13733
G0 F6000 X77.321 Y124.74
;TYPE:WALL-OUTER
G1 F1200 X77.321 Y124.606 E0.138
G1 X77.495 Y124.433 E0.13922
G1 X77.495 Y123.59 E0.14343
G1 X77.641 Y123.589 E0.14415
G1 X77.845 Y123.385 E0.14559
G1 X77.846 Y123.21 E0.14647
G1 X77.991 Y123.065 E0.14749
G1 X78.321 Y123.065 E0.14914
G1 X78.32 Y123.888 E0.15324
G1 X78.175 Y123.888 E0.15397
G1 X77.971 Y124.092 E0.1554
G1 X77.971 Y124.586 E0.15787
G1 X77.475 Y124.586 E0.16034
G1 X77.321 Y124.74 E0.16143
G0 F6000 X77.97 Y125.298
;TYPE:WALL-INNER
G1 F1200 X77.97 Y124.76 E0.16411
G1 X78.195 Y124.761 E0.16524
G1 X78.195 Y125.162 E0.16724
G1 X78.032 Y125.324 E0.16838
G1 X77.97 Y125.298 E0.16872
G0 F6000 X78.02 Y125.265
;TYPE:WALL-OUTER
G1 F1200 X78.02 Y124.81 E0.17099
G1 X78.145 Y124.811 E0.17161
G1 X78.145 Y125.141 E0.17326
G1 X78.02 Y125.265 E0.17414
G0 F6000 X78.021 Y125.124
G0 X77.957 Y125.369
G0 X77.696 Y126.209
G0 X77.62 Y126.209
;TYPE:WALL-INNER
G1 F1200 X77.445 Y126.208 E0.17501
G1 X77.445 Y125.46 E0.17874
G1 X77.796 Y125.46 E0.18049
G1 X77.959 Y125.296 E0.18165
G1 X78.021 Y125.322 E0.18173
G1 X78.02 Y125.859 E0.18441
G1 X77.846 Y126.033 E0.18564
G1 X77.846 Y126.557 E0.18826
G1 X77.62 Y126.557 E0.18938
G1 X77.62 Y126.209 E0.19112
G0 F6000 X77.67 Y126.159
;TYPE:WALL-OUTER
G1 F1200 X77.495 Y126.158 E0.19199
G1 X77.495 Y125.51 E0.19522
G1 X77.816 Y125.51 E0.19683
G1 X77.971 Y125.355 E0.19792
G1 X77.97 Y125.838 E0.20033
G1 X77.796 Y126.013 E0.20156
G1 X77.796 Y126.507 E0.20403
G1 X77.67 Y126.507 E0.20465
G1 X77.67 Y126.159 E0.20639
G0 F6000 X77.696 Y126.089
G0 X77.684 Y126.493
G0 X77.684 Y126.747
G0 X77.543 Y127.718
G0 X77.481 Y128.002
G0 X77.445 Y128.091
;TYPE:WALL-INNER
G1 F1200 X77.446 Y127.905 E0.20732
G1 X77.633 Y127.904 E0.20825
G1 X77.659 Y127.966 E0.20859
G1 X77.506 Y128.117 E0.20966
G1 X77.445 Y128.091 E0.20999
G0 F6000 X77.495 Y128.058
;TYPE:WALL-OUTER
G1 F1200 X77.496 Y127.955 E0.2105
G1 X77.6 Y127.954 E0.21102
G1 X77.495 Y128.058 E0.21176
G0 F6000 X77.481 Y128.002
G0 X75.999 Y129.361
G0 X74.394 Y130.163
G0 X69.038 Y134.636
G0 X68.881 Y134.95
G0 X69.014 Y136.094
G0 X69.014 Y136.348
G0 X67.875 Y136.822
G0 X67.824 Y136.995
;TYPE:WALL-INNER
G1 F1200 X67.824 Y136.634 E0.21356
G1 X67.999 Y136.46 E0.21479
G1 X67.999 Y136.284 E0.21567
G1 X69.061 Y136.284 E0.22097
G1 X69.087 Y136.346 E0.2213
G1 X68.924 Y136.508 E0.22245
G1 X68.749 Y136.509 E0.22332
G1 X68.574 Y136.682 E0.22455
G1 X68.398 Y136.683 E0.22543
G1 X68.225 Y136.857 E0.22665
G1 X68.049 Y136.858 E0.22753
G1 X67.886 Y137.021 E0.22868
G1 X67.824 Y136.995 E0.22902
G0 F6000 X67.874 Y136.962
;TYPE:WALL-OUTER
G1 F1200 X67.874 Y136.655 E0.23055
G1 X68.049 Y136.48 E0.23178
G1 X68.049 Y136.334 E0.23251
G1 X69.028 Y136.334 E0.2374
G1 X68.903 Y136.458 E0.23827
G1 X68.728 Y136.459 E0.23915
G1 X68.553 Y136.632 E0.24038
G1 X68.378 Y136.633 E0.24125
G1 X68.204 Y136.807 E0.24248
G1 X68.029 Y136.808 E0.24335
G1 X67.874 Y136.962 E0.24444
G0 F6000 X67.875 Y136.822
G0 X68.349 Y136.596
G0 X69.014 Y136.348
G0 X69.308 Y136.27
G0 X69.649 Y135.935
G0 X69.799 Y135.935
;TYPE:WALL-INNER
G1 F1200 X70.274 Y135.935 E0.24681
G1 X70.623 Y135.587 E0.24927
G1 X70.623 Y135.287 E0.25076
G1 X70.325 Y135.287 E0.25225
G1 X70.149 Y135.46 E0.25348
G1 X69.973 Y135.461 E0.25436
G1 X69.799 Y135.635 E0.25559
G1 X69.799 Y135.935 E0.25708
G0 F6000 X69.749 Y135.985
;TYPE:WALL-OUTER
G1 F1200 X70.294 Y135.985 E0.2598
G1 X70.673 Y135.607 E0.26247
G1 X70.673 Y135.237 E0.26432
G1 X70.304 Y135.237 E0.26616
G1 X70.128 Y135.41 E0.26739
G1 X69.953 Y135.411 E0.26827
G1 X69.749 Y135.615 E0.2697
G1 X69.749 Y135.985 E0.27155
G0 F6000 X69.679 Y136.055
G0 X70.351 Y136.082
G0 X71.148 Y136.882
G0 X71.148 Y137.032
;TYPE:WALL-INNER
G1 F1200 X70.848 Y137.032 E0.27305
G1 X70.685 Y137.196 E0.2742
G1 X70.623 Y137.17 E0.27454
G1 X70.623 Y136.859 E0.27609
G1 X70.448 Y136.858 E0.27696
G1 X70.447 Y136.509 E0.2787
G1 X70.273 Y136.509 E0.27957
G1 X70.273 Y136.16 E0.28131
G1 X69.975 Y136.16 E0.2828
G1 X69.8 Y136.333 E0.28403
G1 X69.261 Y136.334 E0.28672
G1 X69.235 Y136.272 E0.28705
G1 X69.398 Y136.11 E0.2882
G1 X69.398 Y135.462 E0.29143
G1 X69.224 Y135.461 E0.2923
G1 X69.223 Y134.888 E0.29516
G1 X70.099 Y134.888 E0.29953
G1 X70.273 Y134.714 E0.30075
G1 X70.449 Y134.713 E0.30163
G1 X70.623 Y134.539 E0.30286
G1 X70.974 Y134.538 E0.30461
G1 X71.147 Y134.365 E0.30583
G1 X71.498 Y134.364 E0.30758
G1 X71.672 Y134.19 E0.30881
G1 X71.672 Y133.715 E0.31118
G1 X71.361 Y133.715 E0.31273
G1 X71.335 Y133.653 E0.31307
G1 X71.497 Y133.491 E0.31421
G1 X71.497 Y133.316 E0.31508
G1 X71.723 Y133.316 E0.31621
G1 X71.724 Y133.49 E0.31708
G1 X71.898 Y133.491 E0.31795
G1 X71.899 Y133.665 E0.31882
G1 X72.248 Y133.665 E0.32056
G1 X72.248 Y134.014 E0.3223
G1 X72.386 Y134.015 E0.32299
G1 X72.411 Y134.077 E0.32332
G1 X72.248 Y134.238 E0.32446
G1 X72.248 Y134.713 E0.32683
G1 X72.548 Y134.713 E0.32833
G1 X72.722 Y134.539 E0.32956
G1 X72.723 Y134.363 E0.33044
G1 X72.897 Y134.19 E0.33166
G1 X72.897 Y133.541 E0.3349
G1 X72.41 Y133.541 E0.33733
G1 X72.384 Y133.479 E0.33766
G1 X72.547 Y133.317 E0.33881
G1 X72.547 Y133.143 E0.33968
G1 X72.898 Y133.142 E0.34143
G1 X73.072 Y132.968 E0.34266
G1 X73.073 Y132.27 E0.34614
G1 X73.423 Y132.269 E0.34788
G1 X73.597 Y132.095 E0.34911
G1 X73.598 Y131.745 E0.35086
G1 X73.772 Y131.571 E0.35209
G1 X73.773 Y131.048 E0.3547
G1 X73.947 Y131.047 E0.35556
G1 X74.284 Y130.709 E0.35794
G1 X74.346 Y130.735 E0.35828
G1 X74.347 Y131.57 E0.36245
G1 X74.822 Y131.57 E0.36482
G1 X74.996 Y131.396 E0.36604
G1 X74.997 Y131.045 E0.36779
G1 X75.171 Y130.873 E0.36902
G1 X75.172 Y130.698 E0.36989
G1 X75.347 Y130.697 E0.37076
G1 X75.521 Y130.523 E0.37199
G1 X75.521 Y130.174 E0.37373
G1 X75.696 Y130 E0.37496
G1 X75.697 Y129.824 E0.37584
G1 X75.922 Y129.824 E0.37696
G1 X75.922 Y130.348 E0.37958
G1 X76.271 Y130.348 E0.38132
G1 X76.27 Y131.097 E0.38505
G1 X75.922 Y131.445 E0.38751
G1 X75.922 Y131.744 E0.389
G1 X76.096 Y131.745 E0.38987
G1 X76.096 Y131.971 E0.391
G1 X75.747 Y132.318 E0.39345
G1 X75.746 Y132.668 E0.3952
G1 X75.572 Y132.842 E0.39643
G1 X75.571 Y133.018 E0.3973
G1 X75.222 Y133.365 E0.39976
G1 X75.221 Y133.54 E0.40063
G1 X75.047 Y133.714 E0.40186
G1 X74.871 Y133.715 E0.40274
G1 X74.697 Y133.889 E0.40397
G1 X74.472 Y133.889 E0.40509
G1 X74.471 Y133.191 E0.40857
G1 X74.171 Y133.191 E0.41007
G1 X73.997 Y133.365 E0.4113
G1 X73.996 Y133.714 E0.41304
G1 X73.821 Y133.715 E0.41391
G1 X73.647 Y133.889 E0.41514
G1 X73.647 Y134.538 E0.41837
G1 X73.997 Y134.538 E0.42012
G1 X73.996 Y134.764 E0.42125
G1 X73.834 Y134.926 E0.42239
G1 X73.772 Y134.901 E0.42273
G1 X73.771 Y134.763 E0.42341
G1 X73.472 Y134.763 E0.42491
G1 X73.298 Y134.937 E0.42613
G1 X73.297 Y135.112 E0.42701
G1 X73.123 Y135.286 E0.42823
G1 X73.122 Y136.16 E0.43259
G1 X72.948 Y136.334 E0.43382
G1 X72.947 Y136.509 E0.43469
G1 X72.598 Y136.857 E0.43715
G1 X72.422 Y136.858 E0.43803
G1 X71.898 Y137.381 E0.44173
G1 X71.549 Y137.382 E0.44347
G1 X71.374 Y137.555 E0.44469
G1 X71.149 Y137.555 E0.44582
G1 X71.148 Y137.032 E0.44843
G0 F6000 X71.198 Y136.982
;TYPE:WALL-OUTER
G1 F1200 X70.828 Y136.982 E0.45027
G1 X70.673 Y137.137 E0.45137
G1 X70.673 Y136.809 E0.453
G1 X70.498 Y136.808 E0.45388
G1 X70.497 Y136.459 E0.45562
G1 X70.323 Y136.459 E0.45648
G1 X70.323 Y136.11 E0.45823
G1 X69.954 Y136.11 E0.46007
G1 X69.779 Y136.283 E0.46129
G1 X69.294 Y136.284 E0.46371
G1 X69.448 Y136.13 E0.4648
G1 X69.448 Y135.412 E0.46838
G1 X69.274 Y135.411 E0.46925
G1 X69.273 Y134.938 E0.47161
G1 X70.119 Y134.938 E0.47583
G1 X70.294 Y134.764 E0.47706
G1 X70.469 Y134.763 E0.47794
G1 X70.644 Y134.589 E0.47917
G1 X70.994 Y134.588 E0.48091
G1 X71.168 Y134.415 E0.48214
G1 X71.518 Y134.414 E0.48388
G1 X71.722 Y134.21 E0.48532
G1 X71.722 Y133.665 E0.48804
G1 X71.394 Y133.665 E0.48968
G1 X71.547 Y133.511 E0.49076
G1 X71.547 Y133.366 E0.49148
G1 X71.673 Y133.366 E0.49211
G1 X71.674 Y133.54 E0.49298
G1 X71.848 Y133.541 E0.49385
G1 X71.849 Y133.715 E0.49472
G1 X72.198 Y133.715 E0.49646
G1 X72.198 Y134.064 E0.4982
G1 X72.352 Y134.065 E0.49897
G1 X72.198 Y134.218 E0.50005
G1 X72.198 Y134.763 E0.50277
G1 X72.568 Y134.763 E0.50462
G1 X72.772 Y134.559 E0.50606
G1 X72.773 Y134.384 E0.50693
G1 X72.947 Y134.21 E0.50816
G1 X72.947 Y133.491 E0.51174
G1 X72.443 Y133.491 E0.51426
G1 X72.597 Y133.337 E0.51534
G1 X72.597 Y133.193 E0.51606
G1 X72.918 Y133.192 E0.51766
G1 X73.122 Y132.988 E0.5191
G1 X73.123 Y132.32 E0.52244
G1 X73.443 Y132.319 E0.52403
G1 X73.647 Y132.115 E0.52547
G1 X73.648 Y131.766 E0.52721
G1 X73.822 Y131.591 E0.52844
G1 X73.823 Y131.098 E0.5309
G1 X73.967 Y131.097 E0.53162
G1 X74.296 Y130.768 E0.53394
G1 X74.297 Y131.62 E0.53819
G1 X74.842 Y131.62 E0.54091
G1 X75.046 Y131.416 E0.54235
G1 X75.047 Y131.066 E0.5441
G1 X75.221 Y130.893 E0.54532
G1 X75.222 Y130.748 E0.54605
G1 X75.367 Y130.747 E0.54677
G1 X75.571 Y130.543 E0.54821
G1 X75.571 Y130.195 E0.54995
G1 X75.746 Y130.02 E0.55118
G1 X75.747 Y129.874 E0.55191
G1 X75.872 Y129.874 E0.55253
G1 X75.872 Y130.398 E0.55515
G1 X76.221 Y130.398 E0.55689
G1 X76.22 Y131.076 E0.56027
G1 X75.872 Y131.425 E0.56273
G1 X75.872 Y131.794 E0.56457
G1 X76.046 Y131.795 E0.56544
G1 X76.046 Y131.95 E0.56621
G1 X75.697 Y132.298 E0.56867
G1 X75.696 Y132.647 E0.57041
G1 X75.522 Y132.822 E0.57164
G1 X75.521 Y132.997 E0.57252
G1 X75.172 Y133.345 E0.57497
G1 X75.171 Y133.519 E0.57584
G1 X75.026 Y133.664 E0.57687
G1 X74.851 Y133.665 E0.57774
G1 X74.676 Y133.839 E0.57897
G1 X74.522 Y133.839 E0.57974
G1 X74.521 Y133.141 E0.58322
G1 X74.151 Y133.141 E0.58507
G1 X73.947 Y133.345 E0.58651
G1 X73.946 Y133.664 E0.5881
G1 X73.801 Y133.665 E0.58882
G1 X73.597 Y133.869 E0.59026
G1 X73.597 Y134.588 E0.59385
G1 X73.947 Y134.588 E0.59559
G1 X73.946 Y134.743 E0.59637
G1 X73.822 Y134.867 E0.59724
G1 X73.821 Y134.713 E0.59801
G1 X73.452 Y134.713 E0.59985
G1 X73.248 Y134.917 E0.60129
G1 X73.247 Y135.091 E0.60216
G1 X73.073 Y135.266 E0.60339
G1 X73.072 Y136.139 E0.60774
G1 X72.898 Y136.314 E0.60898
G1 X72.897 Y136.488 E0.60984
G1 X72.577 Y136.807 E0.6121
G1 X72.402 Y136.808 E0.61297
G1 X71.877 Y137.331 E0.61667
G1 X71.528 Y137.332 E0.61841
G1 X71.353 Y137.505 E0.61964
G1 X71.199 Y137.505 E0.62041
G1 X71.198 Y136.982 E0.62301
G0 F6000 X71.238 Y136.942
;TYPE:SKIN
G1 F1200 X70.81 Y136.942 E0.62515
G1 X70.713 Y137.041 E0.62584
G1 X70.713 Y136.769 E0.6272
G1 X70.538 Y136.768 E0.62807
G1 X70.537 Y136.419 E0.62981
G1 X70.363 Y136.419 E0.63068
G1 X70.363 Y136.07 E0.63242
G1 X69.938 Y136.07 E0.63454
G1 X69.763 Y136.243 E0.63577
G1 X69.39 Y136.244 E0.63763
G1 X69.488 Y136.148 E0.63832
G1 X69.488 Y135.372 E0.64219
G1 X69.314 Y135.371 E0.64306
G1 X69.313 Y134.978 E0.64502
G1 X70.137 Y134.978 E0.64913
G1 X70.309 Y134.804 E0.65035
G1 X70.487 Y134.803 E0.65124
G1 X70.659 Y134.629 E0.65246
G1 X71.012 Y134.628 E0.65422
G1 X71.183 Y134.455 E0.65543
G1 X71.536 Y134.454 E0.65719
G1 X71.762 Y134.228 E0.65879
G1 X71.762 Y133.625 E0.66179
G1 X71.49 Y133.625 E0.66315
G1 X71.587 Y133.529 E0.66383
G1 X71.587 Y133.406 E0.66445
G1 X71.633 Y133.406 E0.66468
G1 X71.634 Y133.58 E0.66554
G1 X71.808 Y133.581 E0.66641
G1 X71.809 Y133.755 E0.66728
G1 X72.158 Y133.755 E0.66902
G1 X72.158 Y134.104 E0.67076
