;FLAVOR:Marlin
;TIME:1060
;Filament used: 0.0648029m
;Layer height: 0.12
;MINX:50.212
;MINY:92.789
;MINZ:0.12
;MAXX:127.623
;MAXY:217.242
;MAXZ:0.12
;Generated with Cura_SteamEngine 4.12.1
M105
M109 S0
M82 ;absolute extrusion mode
; Ender 3 Custom Start G-code
;G92 E0 ; Reset Extruder
;G1 Z2.0 F3000 ; Move Z Axis up little to prevent scratching of Heat Bed
;G1 X0.1 Y20 Z0.3 F5000.0 ; Move to start position
;G1 X0.1 Y200.0 Z0.3 F1500.0 E15 ; Draw the first line
;G1 X0.4 Y200.0 Z0.3 F5000.0 ; Move to side a little
;G1 X0.4 Y20 Z0.3 F1500.0 E30 ; Draw the second line
;G92 E0 ; Reset Extruder
;G1 Z2.0 F3000 ; Move Z Axis up little to prevent scratching of Heat Bed
;G1 X5 Y20 Z0.3 F5000.0 ; Move over to prevent blob squish
G92 E0
G92 E0
;LAYER_COUNT:1
;LAYER:0
M107
;MESH:ryanheadhomeowner_monochrome.png
G0 F6000 X107.311 Y213.958 Z100
;TYPE:WALL-INNER
M106
G1 F1200 X107.022 Y213.959 E0.00144
G1 X106.749 Y214.231 E0.00336
G1 X106.309 Y214.231 E0.00556
G1 X106.309 Y214.054 E0.00644
G1 X106.599 Y214.053 E0.00789
G1 X106.872 Y213.78 E0.00982
G1 X107.311 Y213.78 E0.01201
G1 X107.311 Y213.958 E0.01289
G0 F6000 X107.261 Y213.908
;TYPE:WALL-OUTER
G1 F1200 X107.002 Y213.909 E0.01419
G1 X106.728 Y214.181 E0.01611
G1 X106.359 Y214.181 E0.01795
G1 X106.359 Y214.104 E0.01834
G1 X106.619 Y214.103 E0.01963
G1 X106.893 Y213.83 E0.02156
G1 X107.261 Y213.83 E0.0234
G1 X107.261 Y213.908 E0.02379
G0 F6000 X107.191 Y213.858
G0 X107.247 Y213.59
G0 X107.492 Y212.617
G0 X107.86 Y212.489
G0 X107.861 Y212.409
;TYPE:WALL-INNER
G1 F1200 X108.135 Y212.41 E0.02516
G1 X108.135 Y212.589 E0.02605
G1 X107.845 Y212.59 E0.0275
G1 X107.743 Y212.693 E0.02822
G1 X107.681 Y212.667 E0.02855
G1 X107.681 Y212.043 E0.03167
G1 X107.605 Y212.043 E0.03205
G1 X107.579 Y211.981 E0.03238
G1 X107.696 Y211.864 E0.03321
G1 X107.86 Y211.864 E0.03403
G1 X107.861 Y212.409 E0.03675
G0 F6000 X107.811 Y212.459
;TYPE:WALL-OUTER
G1 F1200 X108.085 Y212.46 E0.03811
G1 X108.085 Y212.539 E0.03851
G1 X107.825 Y212.54 E0.0398
G1 X107.731 Y212.634 E0.04047
G1 X107.731 Y211.993 E0.04366
G1 X107.638 Y211.993 E0.04413
G1 X107.717 Y211.914 E0.04469
G1 X107.81 Y211.914 E0.04515
G1 X107.811 Y212.459 E0.04787
G0 F6000 X107.831 Y212.529
G0 X107.831 Y212.509
G0 X107.796 Y211.928
G0 X107.796 Y211.674
G0 X105.992 Y209.779
G0 X105.871 Y209.491
G0 X105.76 Y209.655
;TYPE:WALL-INNER
G1 F1200 X105.76 Y209.4 E0.04914
G1 X106.015 Y209.4 E0.05041
G1 X106.041 Y209.462 E0.05075
G1 X105.822 Y209.681 E0.05229
G1 X105.76 Y209.655 E0.05263
G0 F6000 X105.81 Y209.622
;TYPE:WALL-OUTER
G1 F1200 X105.81 Y209.45 E0.05349
G1 X105.982 Y209.45 E0.05435
G1 X105.81 Y209.622 E0.05556
G0 F6000 X105.117 Y209.947
;TYPE:WALL-INNER
G1 F1200 X105.466 Y209.947 E0.0573
G1 X105.492 Y210.009 E0.05764
G1 X105.376 Y210.125 E0.05845
G1 X104.826 Y210.126 E0.0612
G1 X103.729 Y211.22 E0.06893
G1 X103.179 Y211.221 E0.07167
G1 X102.631 Y211.768 E0.07553
G1 X102.081 Y211.769 E0.07828
G1 X101.533 Y212.315 E0.08214
G1 X101.258 Y212.316 E0.08351
G1 X100.984 Y212.59 E0.08544
G1 X100.71 Y212.59 E0.08681
G1 X100.436 Y212.863 E0.08874
G1 X99.722 Y212.863 E0.0923
G1 X99.722 Y212.137 E0.09592
G1 X100.009 Y212.136 E0.09736
G1 X100.27 Y211.879 E0.09918
G1 X100.271 Y211.59 E0.10063
G1 X101.933 Y211.589 E0.10892
G1 X102.466 Y211.057 E0.11267
G1 X102.467 Y210.495 E0.11548
G1 X103.305 Y210.494 E0.11966
G1 X103.853 Y209.948 E0.12352
G1 X104.128 Y209.947 E0.12489
G1 X104.233 Y209.844 E0.12562
G1 X104.294 Y209.87 E0.12595
G1 X104.294 Y209.947 E0.12634
G1 X104.678 Y209.947 E0.12825
G1 X105.055 Y209.57 E0.13091
G1 X105.117 Y209.596 E0.13125
G1 X105.117 Y209.947 E0.133
G0 F6000 X105.067 Y209.997
;TYPE:WALL-OUTER
G1 F1200 X105.433 Y209.997 E0.13483
G1 X105.355 Y210.075 E0.13538
G1 X104.806 Y210.076 E0.13812
G1 X103.708 Y211.17 E0.14585
G1 X103.159 Y211.171 E0.14859
G1 X102.61 Y211.718 E0.15245
G1 X102.061 Y211.719 E0.15519
G1 X101.512 Y212.265 E0.15906
G1 X101.238 Y212.266 E0.16042
G1 X100.963 Y212.54 E0.16236
G1 X100.69 Y212.54 E0.16372
G1 X100.415 Y212.813 E0.16566
G1 X99.772 Y212.813 E0.16886
G1 X99.772 Y212.187 E0.17199
G1 X100.03 Y212.186 E0.17327
G1 X100.32 Y211.9 E0.17531
G1 X100.321 Y211.64 E0.1766
G1 X101.953 Y211.639 E0.18474
G1 X102.516 Y211.077 E0.18871
G1 X102.517 Y210.545 E0.19137
G1 X103.325 Y210.544 E0.1954
G1 X103.874 Y209.998 E0.19926
G1 X104.149 Y209.997 E0.20063
G1 X104.244 Y209.903 E0.2013
G1 X104.244 Y209.997 E0.20177
G1 X104.698 Y209.997 E0.20403
G1 X105.067 Y209.629 E0.20663
G1 X105.067 Y209.997 E0.20847
G0 F6000 X105.027 Y210.036
;TYPE:SKIN
G1 F1200 X104.788 Y210.036 E0.20966
G1 X103.693 Y211.13 E0.21739
G1 X103.141 Y211.131 E0.22014
G1 X102.595 Y211.678 E0.224
G1 X102.043 Y211.679 E0.22675
G1 X101.497 Y212.225 E0.2306
G1 X101.22 Y212.226 E0.23198
G1 X100.948 Y212.5 E0.23391
G1 X100.672 Y212.5 E0.23529
G1 X100.4 Y212.773 E0.23721
G1 X99.812 Y212.773 E0.24014
G1 X99.812 Y212.227 E0.24287
G1 X100.046 Y212.226 E0.24403
G1 X100.36 Y211.917 E0.24623
G1 X100.361 Y211.68 E0.24741
G1 X101.971 Y211.679 E0.25545
G1 X102.556 Y211.095 E0.25957
G1 X102.557 Y210.585 E0.26212
G1 X103.343 Y210.584 E0.26604
G1 X103.889 Y210.038 E0.26989
G1 X104.165 Y210.037 E0.27127
G1 X104.204 Y209.999 E0.27154
G1 X104.204 Y210.037 E0.27173
G1 X104.716 Y210.037 E0.27428
G1 X105.027 Y209.724 E0.27648
G1 X105.027 Y210.036 E0.27804
G0 F6000 X104.936 Y209.87
G1 F1200 X104.986 Y209.921 E0.2784
G0 F6000 X104.919 Y209.995
G1 F1200 X104.865 Y209.941 E0.27878
G0 F6000 X104.632 Y210.133
G1 F1200 X104.575 Y210.075 E0.27918
G0 F6000 X104.562 Y210.203
G1 F1200 X104.434 Y210.075 E0.28009
G0 F6000 X104.292 Y210.075
G1 F1200 X104.491 Y210.274 E0.28149
G0 F6000 X104.42 Y210.345
G1 F1200 X104.151 Y210.076 E0.28339
G0 F6000 X104.011 Y210.077
G1 F1200 X104.349 Y210.415 E0.28577
G0 F6000 X104.279 Y210.486
G1 F1200 X103.887 Y210.094 E0.28854
G0 F6000 X103.816 Y210.165
G1 F1200 X104.208 Y210.557 E0.2913
G0 F6000 X104.137 Y210.628
G1 F1200 X103.745 Y210.236 E0.29407
G0 F6000 X103.675 Y210.306
G1 F1200 X104.067 Y210.698 E0.29684
G0 F6000 X103.996 Y210.769
G1 F1200 X103.604 Y210.377 E0.2996
G0 F6000 X103.533 Y210.448
G1 F1200 X103.925 Y210.84 E0.30237
G0 F6000 X103.854 Y210.91
G1 F1200 X103.463 Y210.519 E0.30513
G0 F6000 X103.392 Y210.589
G1 F1200 X103.784 Y210.981 E0.30789
G0 F6000 X103.713 Y211.052
G1 F1200 X103.285 Y210.624 E0.31091
G0 F6000 X103.144 Y210.624
G1 F1200 X103.608 Y211.089 E0.31419
G0 F6000 X103.467 Y211.089
G1 F1200 X103.002 Y210.624 E0.31747
G0 F6000 X102.861 Y210.624
G1 F1200 X103.326 Y211.089 E0.32075
G0 F6000 X103.185 Y211.089
G1 F1200 X102.719 Y210.624 E0.32403
G0 F6000 X102.596 Y210.642
G1 F1200 X103.084 Y211.13 E0.32748
G0 F6000 X103.014 Y211.201
G1 F1200 X102.596 Y210.783 E0.33043
G0 F6000 X102.596 Y210.925
G1 F1200 X102.943 Y211.272 E0.33287
G0 F6000 X102.872 Y211.342
G1 F1200 X102.596 Y211.066 E0.33482
G0 F6000 X102.548 Y211.159
G1 F1200 X102.802 Y211.413 E0.33661
G0 F6000 X102.731 Y211.484
G1 F1200 X102.477 Y211.23 E0.33841
G0 F6000 X102.406 Y211.301
G1 F1200 X102.66 Y211.555 E0.3402
G0 F6000 X102.589 Y211.625
G1 F1200 X102.336 Y211.371 E0.34199
G0 F6000 X102.265 Y211.442
G1 F1200 X102.459 Y211.637 E0.34336
G0 F6000 X102.319 Y211.637
G1 F1200 X102.194 Y211.513 E0.34424
G0 F6000 X102.123 Y211.584
G1 F1200 X102.177 Y211.637 E0.34462
G0 F6000 X101.89 Y211.774
G1 F1200 X101.834 Y211.719 E0.34501
G0 F6000 X101.819 Y211.845
G1 F1200 X101.693 Y211.719 E0.3459
G0 F6000 X101.551 Y211.719
G1 F1200 X101.749 Y211.916 E0.34729
G0 F6000 X101.678 Y211.987
G1 F1200 X101.41 Y211.719 E0.34918
G0 F6000 X101.269 Y211.719
G1 F1200 X101.607 Y212.057 E0.35157
G0 F6000 X101.536 Y212.128
G1 F1200 X101.127 Y211.719 E0.35445
G0 F6000 X100.986 Y211.719
G1 F1200 X101.451 Y212.184 E0.35773
G0 F6000 X101.31 Y212.184
G1 F1200 X100.844 Y211.719 E0.36102
G0 F6000 X100.703 Y211.719
G1 F1200 X101.186 Y212.202 E0.36442
G0 F6000 X101.116 Y212.273
G1 F1200 X100.561 Y211.719 E0.36834
G0 F6000 X100.42 Y211.719
G1 F1200 X101.046 Y212.344 E0.37275
G0 F6000 X100.975 Y212.415
G1 F1200 X100.399 Y211.839 E0.37681
G0 F6000 X100.375 Y211.957
G1 F1200 X100.877 Y212.459 E0.38036
G0 F6000 X100.736 Y212.459
G1 F1200 X100.304 Y212.027 E0.3834
G0 F6000 X100.233 Y212.098
G1 F1200 X100.625 Y212.489 E0.38617
G0 F6000 X100.554 Y212.56
G1 F1200 X100.162 Y212.168 E0.38893
G0 F6000 X100.09 Y212.238
G1 F1200 X100.484 Y212.631 E0.39171
G0 F6000 X100.414 Y212.702
G1 F1200 X99.977 Y212.265 E0.39479
G0 F6000 X99.851 Y212.281
G1 F1200 X100.301 Y212.731 E0.39797
G0 F6000 X100.16 Y212.731
G1 F1200 X99.851 Y212.423 E0.40014
G0 F6000 X99.851 Y212.564
G1 F1200 X100.018 Y212.731 E0.40132
G0 F6000 X99.877 Y212.731
G1 F1200 X99.851 Y212.706 E0.4015
G0 F6000 X99.872 Y212.706
G0 X101.758 Y211.779
G0 X104.286 Y210.001
G0 X104.21 Y209.923
;TYPE:SKIN
G1 F1200 X104.241 Y209.954 E0.40161
G0 F6000 X105.081 Y210.016
G1 F1200 X105.149 Y210.084 E0.40185
G0 F6000 X105.22 Y210.084
G1 F1200 X105.122 Y209.986 E0.4022
G0 F6000 X105.193 Y209.986
G1 F1200 X105.291 Y210.084 E0.40254
G0 F6000 X105.361 Y210.083
G1 F1200 X105.264 Y209.986 E0.40288
G0 F6000 X105.334 Y209.986
G1 F1200 X105.396 Y210.048 E0.4031
G0 F6000 X105.431 Y210.012
G1 F1200 X105.405 Y209.986 E0.40319
G0 F6000 X105.076 Y209.657
G1 F1200 X105.049 Y209.63 E0.40329
G0 F6000 X105.017 Y209.764
G0 X102.054 Y211.701
G0 X102.159 Y211.955
G0 X101.27 Y212.84
G0 X100.386 Y213.59
G0 X100.386 Y213.844
G0 X100.45 Y213.958
;TYPE:WALL-INNER
G1 F1200 X100.271 Y213.958 E0.40418
G1 X100.271 Y213.78 E0.40507
G1 X100.45 Y213.78 E0.40596
G1 X100.45 Y213.958 E0.40685
G0 F6000 X100.4 Y213.908
;TYPE:WALL-OUTER
G1 F1200 X100.321 Y213.908 E0.40725
G1 X100.321 Y213.83 E0.40763
G1 X100.4 Y213.83 E0.40803
G1 X100.4 Y213.908 E0.40842
G0 F6000 X100.33 Y213.858
G0 X89.229 Y212.499
G0 X89.114 Y213.041
G0 X89.663 Y214.136
G0 X90.761 Y214.683
G0 X92.121 Y213.839
G0 X90.759 Y213.839
G0 X90.499 Y213.839
G0 X90.569 Y213.959
;TYPE:WALL-INNER
G1 F1200 X89.841 Y213.958 E0.41205
G1 X89.84 Y212.958 E0.41704
G1 X90.843 Y212.959 E0.42204
G1 X90.844 Y213.396 E0.42422
G1 X90.569 Y213.669 E0.42616
G1 X90.569 Y213.959 E0.4276
G0 F6000 X90.519 Y213.909
;TYPE:WALL-OUTER
G1 F1200 X89.891 Y213.908 E0.43074
G1 X89.89 Y213.008 E0.43523
G1 X90.793 Y213.009 E0.43973
G1 X90.794 Y213.375 E0.44156
G1 X90.519 Y213.649 E0.44349
G1 X90.519 Y213.909 E0.44479
G0 F6000 X90.92 Y214.053
;TYPE:WALL-INNER
G1 F1200 X90.946 Y214.115 E0.44513
G1 X90.829 Y214.232 E0.44595
G1 X90.663 Y214.232 E0.44678
G1 X90.663 Y214.053 E0.44767
G1 X90.92 Y214.053 E0.44896
G0 F6000 X90.887 Y214.103
;TYPE:WALL-OUTER
G1 F1200 X90.808 Y214.182 E0.44951
G1 X90.713 Y214.182 E0.44999
G1 X90.713 Y214.103 E0.45038
G1 X90.887 Y214.103 E0.45125
G0 F6000 X90.795 Y214.132
G0 X91.044 Y214.285
G0 X92.121 Y214.109
G0 X92.413 Y213.857
G0 X93.235 Y213.858
G0 X93.303 Y214.159
G0 X94.516 Y214.226
G0 X94.584 Y213.881
G0 X94.884 Y214.13
G0 X95.157 Y214.131
G0 X98.978 Y214.476
G0 X99.154 Y214.327
;TYPE:WALL-INNER
G1 F1200 X99.18 Y214.389 E0.45158
G1 X99.078 Y214.49 E0.4523
G1 X99.077 Y214.765 E0.45367
G1 X98.789 Y215.052 E0.4557
G1 X98.513 Y215.053 E0.45708
G1 X97.965 Y215.6 E0.46094
G1 X96.977 Y215.6 E0.46587
G1 X96.977 Y215.435 E0.46669
G1 X97.251 Y215.163 E0.46862
G1 X97.251 Y214.78 E0.47053
G1 X96.592 Y214.78 E0.47382
G1 X95.22 Y216.147 E0.48348
G1 X94.781 Y216.147 E0.48567
G1 X94.78 Y215.601 E0.4884
G1 X93.605 Y215.601 E0.49426
G1 X93.579 Y215.539 E0.49459
G1 X93.682 Y215.437 E0.49532
G1 X93.682 Y215.054 E0.49723
G1 X93.408 Y215.053 E0.49859
G1 X93.407 Y214.78 E0.49996
G1 X92.859 Y214.779 E0.50269
G1 X92.858 Y214.507 E0.50405
G1 X92.585 Y214.506 E0.50541
G1 X92.584 Y214.233 E0.50677
G1 X92.311 Y214.232 E0.50813
G1 X92.31 Y213.685 E0.51086
G1 X91.377 Y213.685 E0.51552
G1 X91.274 Y213.789 E0.51625
G1 X91.212 Y213.763 E0.51658
G1 X91.212 Y213.505 E0.51787
G1 X91.776 Y213.505 E0.52068
G1 X92.05 Y213.232 E0.52261
G1 X92.49 Y213.232 E0.52481
G1 X92.491 Y213.779 E0.52754
G1 X93.313 Y213.78 E0.53164
G1 X93.314 Y214.326 E0.53436
G1 X93.863 Y214.326 E0.5371
G1 X93.863 Y214.874 E0.53983
G1 X94.247 Y214.874 E0.54175
G1 X94.506 Y214.616 E0.54357
G1 X94.506 Y213.959 E0.54685
G1 X94.428 Y213.959 E0.54724
G1 X94.403 Y213.897 E0.54757
G1 X94.521 Y213.78 E0.5484
G1 X94.961 Y213.78 E0.5506
G1 X94.962 Y214.052 E0.55196
G1 X95.235 Y214.053 E0.55332
G1 X95.236 Y214.326 E0.55468
G1 X95.51 Y214.326 E0.55605
G1 X95.51 Y214.599 E0.55741
G1 X95.784 Y214.6 E0.55878
G1 X95.785 Y214.874 E0.56014
G1 X96.169 Y214.874 E0.56206
G1 X96.442 Y214.601 E0.56399
G1 X97.815 Y214.6 E0.57084
G1 X97.92 Y214.497 E0.57157
G1 X97.981 Y214.523 E0.5719
G1 X97.981 Y214.6 E0.57228
G1 X98.638 Y214.6 E0.57556
G1 X98.912 Y214.327 E0.57749
G1 X99.154 Y214.327 E0.5787
G0 F6000 X99.121 Y214.377
;TYPE:WALL-OUTER
G1 F1200 X99.028 Y214.47 E0.57935
G1 X99.027 Y214.744 E0.58072
G1 X98.768 Y215.002 E0.58255
G1 X98.493 Y215.003 E0.58392
G1 X97.944 Y215.55 E0.58778
G1 X97.027 Y215.55 E0.59236
G1 X97.027 Y215.456 E0.59283
G1 X97.301 Y215.183 E0.59476
G1 X97.301 Y214.73 E0.59702
G1 X96.572 Y214.73 E0.60065
G1 X95.199 Y216.097 E0.61032
G1 X94.831 Y216.097 E0.61216
G1 X94.83 Y215.551 E0.61488
G1 X93.638 Y215.551 E0.62083
G1 X93.732 Y215.457 E0.62149
G1 X93.732 Y215.004 E0.62375
G1 X93.458 Y215.003 E0.62512
G1 X93.457 Y214.73 E0.62648
G1 X92.909 Y214.729 E0.62921
G1 X92.908 Y214.457 E0.63057
G1 X92.635 Y214.456 E0.63193
G1 X92.634 Y214.183 E0.6333
G1 X92.361 Y214.182 E0.63466
G1 X92.36 Y213.635 E0.63739
G1 X91.357 Y213.635 E0.64239
G1 X91.262 Y213.73 E0.64306
G1 X91.262 Y213.555 E0.64393
G1 X91.796 Y213.555 E0.6466
G1 X92.071 Y213.282 E0.64853
G1 X92.44 Y213.282 E0.65037
G1 X92.441 Y213.829 E0.6531
G1 X93.263 Y213.83 E0.6572
G1 X93.264 Y214.376 E0.65993
G1 X93.813 Y214.376 E0.66266
G1 X93.813 Y214.924 E0.6654
G1 X94.267 Y214.924 E0.66766
G1 X94.556 Y214.636 E0.6697
G1 X94.556 Y213.909 E0.67333
G1 X94.462 Y213.909 E0.6738
G1 X94.542 Y213.83 E0.67436
G1 X94.911 Y213.83 E0.6762
G1 X94.912 Y214.102 E0.67755
G1 X95.185 Y214.103 E0.67892
G1 X95.186 Y214.376 E0.68028
G1 X95.46 Y214.376 E0.68165
G1 X95.46 Y214.649 E0.68301
G1 X95.734 Y214.65 E0.68437
G1 X95.735 Y214.924 E0.68574
G1 X96.189 Y214.924 E0.68801
G1 X96.463 Y214.651 E0.68994
G1 X97.836 Y214.65 E0.69679
G1 X97.931 Y214.556 E0.69745
G1 X97.931 Y214.65 E0.69792
G1 X98.658 Y214.65 E0.70155
G1 X98.933 Y214.377 E0.70348
G1 X99.121 Y214.377 E0.70442
G0 F6000 X99.024 Y214.417
;TYPE:SKIN
G1 F1200 X98.988 Y214.452 E0.70467
G1 X98.987 Y214.729 E0.70605
G1 X98.753 Y214.962 E0.7077
G1 X98.475 Y214.963 E0.70909
G1 X97.929 Y215.51 E0.71294
G1 X97.067 Y215.51 E0.71724
G1 X97.067 Y215.471 E0.71744
G1 X97.341 Y215.201 E0.71936
G1 X97.341 Y214.69 E0.72191
G1 X97.851 Y214.69 E0.72445
G1 X97.891 Y214.651 E0.72473
G1 X97.891 Y214.69 E0.72492
G1 X98.676 Y214.69 E0.72884
G1 X98.948 Y214.417 E0.73076
G1 X99.024 Y214.417 E0.73114
G0 F6000 X99.024 Y214.477
G0 X98.709 Y214.665
G0 X96.517 Y214.715
G0 X96.553 Y214.691
G1 F1200 X95.184 Y216.057 E0.74079
G1 X94.871 Y216.057 E0.74235
G1 X94.87 Y215.511 E0.74508
G1 X93.735 Y215.511 E0.75074
G1 X93.772 Y215.475 E0.751
G1 X93.772 Y214.964 E0.75355
G1 X93.498 Y214.963 E0.75491
G1 X93.497 Y214.69 E0.75627
G1 X92.949 Y214.689 E0.75901
G1 X92.948 Y214.417 E0.76037
G1 X92.675 Y214.416 E0.76173
G1 X92.674 Y214.143 E0.76309
G1 X92.401 Y214.142 E0.76445
G1 X92.4 Y213.595 E0.76718
G1 X91.339 Y213.595 E0.77247
G1 X91.302 Y213.633 E0.77274
G1 X91.302 Y213.595 E0.77293
G1 X91.814 Y213.595 E0.77548
G1 X92.086 Y213.322 E0.77741
G1 X92.4 Y213.322 E0.77897
G1 X92.401 Y213.869 E0.7817
G1 X93.223 Y213.87 E0.7858
G1 X93.224 Y214.416 E0.78853
G1 X93.773 Y214.416 E0.79126
G1 X93.773 Y214.964 E0.794
G1 X94.285 Y214.964 E0.79655
G1 X94.596 Y214.654 E0.79874
G1 X94.596 Y213.87 E0.80266
G1 X94.871 Y213.87 E0.80403
G1 X94.872 Y214.142 E0.80538
G1 X95.145 Y214.143 E0.80675
G1 X95.146 Y214.416 E0.80811
G1 X95.42 Y214.416 E0.80948
G1 X95.42 Y214.689 E0.81084
G1 X95.694 Y214.69 E0.8122
G1 X95.695 Y214.964 E0.81357
G1 X96.207 Y214.964 E0.81613
G1 X96.478 Y214.691 E0.81804
G1 X96.553 Y214.691 E0.81842
G0 F6000 X96.517 Y214.715
G0 X98.673 Y214.686
G0 X98.869 Y214.551
G1 F1200 X98.947 Y214.63 E0.81897
